!!!!SEGMENT: pl-cz--ii-187--001-002_orlowski-michal--sinfonia-in-f-andante.krn
!!!cenid: 17xx:1020
!!!COM: Orłowski, Michał
!!!COM-rismID: pe30020336
!!!CDT: ~1700-~1799
!!!CNT:
!!!OPR: Sinfonia in F
!!!OTL: Andante
!!!OMV: 002
!!!PDT:
!!!AGN: Secular
!!!SMS-siglum: PL-CZ
!!!SMS-shelfmark: II-187
!!!SMS-shelfwork: 001-002 M
!!!SMS-variant:
!!!SMS-altvar:
!!!NIFC-rismSourceID: 300000946
!!!NIFC-rismChildID: 300000946
!!!NIFC-islandoraID: pl-cz:32738
!!!URL-pdf-islandora: https://repozytorium.nifc.pl/islandora/object/pl-cz%3A32738/datastream/PDF/view
!!!URL-scan: https://polish.musicsources.pl/pl/lokalizacje/galeria/rekopisy/6775/1 @EN{Scan on Polish Music Sources Website} @PL{Skany w portalu Dziedzictwo Muzyki Polskiej w otwartym dostępie}
!!!IIIF:
!!!ONB-nifc: UWAGA: części Sinfonii: Allegro moderato, Andante, Rondo
!!!AIN: 1 alto 1 bass 1 cbass 1 cello 1 clars 1 clrno 2 cornt 1 fagot 1 flt 2 oboe 1 soprn 1 tenor 1 timpa 1 tromb 1 viola 2 violn
!!!key: F-
**kern	**dynam	**kern	**kern	**dynam	**kern	**dynam	**kern	**dynam	**kern	**kern	**kern	**kern	**kern	**kern	**kern	**kern	**kern	**dynam	**kern	**kern	**kern	**kern	**kern
*part19	*part19	*part18	*part17	*part17	*part16	*part16	*part15	*part15	*part14	*part13	*part12	*part11	*part10	*part9	*part8	*part7	*part6	*part6	*part5	*part4	*part3	*part2	*part1
*staff19	*	*staff18	*staff17	*	*staff16	*	*staff15	*	*staff14	*staff13	*staff12	*staff11	*staff10	*staff9	*staff8	*staff7	*staff6	*	*staff5	*staff4	*staff3	*staff2	*staff1
*I"Bafso.	*	*I"Cello	*I"Viola Obl:	*	*I"Violino Secondo	*	*I"Violino Primo	*	*I"Basso	*I"Tenore	*I"Alto	*I"Canto	*I"Timpani	*I"Trombone	*I"Clarino	*I"Cornu Secondo in F.	*I"Cornu Primo in F	*	*I"Fagotto Concertato	*I"Clarinetto in B♭	*I"Oboe Secondo	*I"Oboe Primo Concertatto	*I"Flauto
*I'b	*	*I'Vc.	*I'vla	*	*I'vl 2	*	*I'vl 1	*	*I'B.	*I'T.	*I'A.	*I'C.	*I'Timp.	*I'Tr-ne	*I'Tr-ba in B♭	*I'cor 2 in F	*I'cor 1 in F	*	*I'Fag.	*I'Cl. in B♭	*I'ob 2	*I'ob 1	*I'Fl.
*Icbass	*	*Icello	*Iviola	*	*Ivioln	*	*Ivioln	*	*Ibass	*Itenor	*Ialto	*Isoprn	*Itimpa	*Itromb	*Iclrno	*Icornt	*Icornt	*	*Ifagot	*Iclars	*Ioboe	*Ioboe	*Iflt
*ICstr	*	*ICstr	*ICstr	*	*ICstr	*	*ICstr	*	*ICvox	*ICvox	*ICvox	*ICvox	*ICidio	*ICbrass	*ICbrass	*ICbrass	*ICbrass	*	*ICww	*ICww	*ICww	*ICww	*ICww
*clefF4	*	*clefF4	*clefC3	*	*clefG2	*	*clefG2	*	*clefF4	*clefGv2	*clefG2	*clefG2	*clefF4	*clefF4	*clefG2	*clefG2	*clefG2	*	*clefF4	*clefG2	*clefG2	*clefG2	*clefG2
*	*	*	*	*	*	*	*	*	*	*	*	*	*	*	*	*ITrd1c2	*ITrd1c2	*	*	*ITrd1c2	*	*	*
*k[b-e-]	*	*k[b-e-]	*k[b-e-]	*	*k[b-e-]	*	*k[b-e-]	*	*k[b-e-]	*k[b-e-]	*k[b-e-]	*k[b-e-]	*k[b-e-]	*k[b-e-]	*k[b-e-]	*k[b-e-]	*k[b-e-]	*	*k[b-e-]	*k[b-e-]	*k[b-e-]	*k[b-e-]	*k[b-e-]
*F-:	*	*F-:	*F-:	*	*F-:	*	*F-:	*	*F-:	*F-:	*F-:	*F-:	*F-:	*F-:	*F-:	*F-:	*F-:	*	*F-:	*F-:	*F-:	*F-:	*F-:
*M2/2	*	*M2/2	*M2/2	*	*M2/2	*	*M2/2	*	*M2/2	*M2/2	*M2/2	*M2/2	*M2/2	*M2/2	*M2/2	*M2/2	*M2/2	*	*M2/2	*M2/2	*M2/2	*M2/2	*M2/2
*met(c|)	*	*met(c|)	*met(c|)	*	*met(c|)	*	*met(c|)	*	*met(c|)	*met(c|)	*met(c|)	*met(c|)	*met(c|)	*met(c|)	*met(c|)	*met(c|)	*met(c|)	*	*met(c|)	*met(c|)	*met(c|)	*met(c|)	*met(c|)
=1	=1	=1	=1	=1	=1	=1	=1	=1	=1	=1	=1	=1	=1	=1	=1	=1	=1	=1	=1	=1	=1	=1	=1
!	!	!	!	!	!	!	!	!	!	!	!	!	!	!	!	!	!LO:TX:t=P:problem=partię przepisuję dla instrumentu w stroju Bb	!	!	!	!	!	!
!	!	!	!	!	!	!	!	!	!	!	!	!	!	!	!	!	!LO:TX:a:t=in B.	!	!	!	!	!	!
!	!	!	!	!	!	!	!	!	!	!	!	!	!	!	!	!LO:TX:t=P:problem=na początku wężowate segno	!LO:TX:t=P:problem=na początku wężowate segno	!	!	!	!LO:TX:t=P:2\&colon;global:problem	!LO:TX:a:t=|	!
!LO:TX:t=P:problem=4, 8, 16&colon;laska w dół przeważnie po środku	!	!	!	!	!	!	!	!	!	!	!	!	!	!	!	!LO:TX:t=P:problem=partię przepisuję dla instrumentu w stroju Bb	!	!	!	!	!LO:TX:a:t=|	!	!
!	!	!	!LO:TX:t=P:problem=4, 8, 16, 32&colon;laska w dół przeważnie po środku	!	!LO:TX:t=P:problem=4, 8, 16&colon;laska w dół przeważnie po środku	!	!LO:TX:t=P:problem=4, 8, 16&colon;laska w dół przeważnie po środku	!	!	!	!	!	!	!	!	!LO:TX:a:t=in B.	!LO:TX:t=P:problem=4, 8&colon;laska w dół przeważnie po środku	!	!	!	!LO:TX:t=P:problem=4, 8, 16&colon;laska w dół przeważnie po środku	!LO:TX:t=P:problem=4, 8, 16&colon;laska w dół przeważnie po środku	!
!LO:TX:a:t=Andante	!	!	!LO:TX:a:t=And:	!	!LO:TX:a:t=Andante	!	!LO:TX:a:t=And:	!	!	!	!	!	!	!	!	!LO:TX:a:t=Andante	!LO:TX:a:t=And:	!	!	!	!LO:TX:a:t=And:	!LO:TX:a:t=And:	!
!LO:TX:a:t=Rondo	!	!	!LO:TX:b:t=Rondo	!	!LO:TX:a:t=Rondo	!	!LO:TX:a:t=Rondo	!	!	!	!	!	!	!	!	!LO:TX:a:t=Rondo	!LO:TX:b:t=Rondo	!	!LO:TX:t=P:problem=partia zapisana na okładce (część I i końcówka III?), BRAK zapisu części II	!	!LO:TX:a:t=Rondo	!LO:TX:a:t=Rondo	!
*all\right	*	*	*all\right	*	*all\right	*	*	*	*	*	*	*	*	*	*	*all\right	*	*	*	*	*all\right	*all\right	*
*2\right	*	*	*2\right	*	*2\right	*	*2\right	*	*	*	*	*	*	*	*	*2\right	*	*	*	*	*2\right	*2\right	*
!	!	!	!	!	!	!LO:DY:b:t=pia	!	!LO:DY:b:t=pia	!	!	!	!	!	!	!	!	!	!	!	!	!	!	!
1r	.	1r	1r	.	4B-/	p	4B-/	p	1r	1r	1r	1r	1r	1r	1r	4b-\	4dd\	.	1ryy	1r	4.b-\	4.dd\	1r
.	.	.	.	.	4r	.	4r	.	.	.	.	.	.	.	.	4r	4r	.	.	.	.	.	.
!	!	!	!	!	!	!	!	!	!	!	!	!	!	!	!	!	!	!	!	!	!LO:TX:a:t=|	!LO:TX:a:t=|	!
.	.	.	.	.	.	.	.	.	.	.	.	.	.	.	.	.	.	.	.	.	8cc\	8ee-\	.
!	!	!	!	!	!	!	!	!	!	!	!	!	!	!	!	!	!	!	!	!	!LO:TX:a:t=|	!LO:TX:a:t=|	!
.	.	.	.	.	4r	.	4r	.	.	.	.	.	.	.	.	4r	4r	.	.	.	4dd\	4ff\	.
!	!	!	!	!	!	!	!	!	!	!	!	!	!	!	!	!	!	!	!	!	!	!	!
.	.	.	.	.	4b-\	.	4b-\	.	.	.	.	.	.	.	.	4dd\	4ff\	.	.	.	4r	4r	.
=2	=2	=2	=2	=2	=2	=2	=2	=2	=2	=2	=2	=2	=2	=2	=2	=2	=2	=2	=2	=2	=2	=2	=2
!	!	!	!	!	!	!	!	!	!	!	!	!	!	!	!	!	!	!	!	!	!LO:TX:t=P:4.\:problem	!	!
!	!	!	!	!	!	!	!	!	!	!	!	!	!	!	!	!	!	!	!	!	!LO:TX:a:t=|	!LO:TX:a:t=|	!
1r	.	1r	1r	.	4f/	.	4f/	.	1r	1r	1r	1r	1r	1r	1r	4f/	4cc\	.	1ryy	1r	4.a\	4.cc'\	1r
.	.	.	.	.	4r	.	4r	.	.	.	.	.	.	.	.	4r	4r	.	.	.	.	.	.
!	!	!	!	!	!	!	!	!	!	!	!	!	!	!	!	!	!	!	!	!	!LO:TX:t=P:problem=8\	!	!
!	!	!	!	!	!	!	!	!	!	!	!	!	!	!	!	!	!	!	!	!	!LO:TX:a:t=|	!	!
.	.	.	.	.	.	.	.	.	.	.	.	.	.	.	.	.	.	.	.	.	8b-\	8dd'\	.
!	!	!	!	!	!	!	!	!	!	!	!	!	!	!	!	!	!	!	!	!	!LO:TX:t=P:4\:problem	!	!
!	!	!	!	!	!	!	!	!	!	!	!	!	!	!	!	!	!	!	!	!	!LO:TX:a:t=|	!	!
.	.	.	.	.	4r	.	4r	.	.	.	.	.	.	.	.	4r	4r	.	.	.	4cc\	4ee-'\	.
.	.	.	.	.	4f/	.	4f/	.	.	.	.	.	.	.	.	4cc\	4ee-\	.	.	.	4r	4r	.
=3	=3	=3	=3	=3	=3	=3	=3	=3	=3	=3	=3	=3	=3	=3	=3	=3	=3	=3	=3	=3	=3	=3	=3
!	!	!	!	!	!	!	!	!	!	!	!	!	!	!	!	!	!LO:TX:t=P:4\:problem	!	!	!	!	!LO:TX:t=P:problem=8\	!
1r	.	1r	1r	.	4B-/	.	4B-/	.	1r	1r	1r	1r	1r	1r	1r	4b-\	4dd\	.	1ryy	1r	(8cc\L	(8ee-\L	1r
!	!	!	!	!	!	!	!	!	!	!	!	!	!	!	!	!	!	!	!	!	!	!LO:TX:t=P:problem=8\	!
.	.	.	.	.	.	.	.	.	.	.	.	.	.	.	.	.	.	.	.	.	8b-\)	8dd\)	.
!	!	!	!	!	!	!	!	!	!	!	!	!	!	!	!	!	!	!	!	!	!	!LO:TX:t=P:problem=8\	!
.	.	.	.	.	4r	.	4r	.	.	.	.	.	.	.	.	4r	4r	.	.	.	(8a\	(8cc\	.
!	!	!	!	!	!	!	!	!	!	!	!	!	!	!	!	!	!	!	!	!	!	!LO:TX:t=P:problem=8\	!
.	.	.	.	.	.	.	.	.	.	.	.	.	.	.	.	.	.	.	.	.	8g\J)	8b-\J)	.
!	!	!	!	!	!	!	!	!	!	!	!	!	!	!	!	!	!	!	!	!	!	!LO:TX:t=P:problem=8\	!
.	.	.	.	.	4r	.	4r	.	.	.	.	.	.	.	.	2r	2r	.	.	.	(8f/L	(8a\L	.
!	!	!	!	!	!	!	!	!	!	!	!	!	!	!	!	!	!	!	!	!	!	!LO:TX:t=P:problem=8\	!
.	.	.	.	.	.	.	.	.	.	.	.	.	.	.	.	.	.	.	.	.	8a/)	8cc\)	.
!	!	!	!	!	!	!	!	!	!	!	!	!	!	!	!	!	!	!	!	!	!	!LO:TX:t=P:problem=8\	!
.	.	.	.	.	4B-/	.	4B-/	.	.	.	.	.	.	.	.	.	.	.	.	.	(8cc/	(8ee-\	.
!	!	!	!	!	!	!	!	!	!	!	!	!	!	!	!	!	!	!	!	!	!	!LO:TX:t=P:problem=8\	!
.	.	.	.	.	.	.	.	.	.	.	.	.	.	.	.	.	.	.	.	.	8b-/J)	8dd\J)	.
=4	=4	=4	=4	=4	=4	=4	=4	=4	=4	=4	=4	=4	=4	=4	=4	=4	=4	=4	=4	=4	=4	=4	=4
!	!	!	!	!	!	!	!	!	!	!	!	!	!	!	!	!	!	!	!	!	!	!LO:TX:t=P:4\:problem	!
1r	.	1r	1r	.	4f/	.	4f/	.	1r	1r	1r	1r	1r	1r	1r	4f/	4cc\	.	1ryy	1r	4a/	4cc\	1r
!	!	!	!	!	!	!	!	!	!	!	!	!	!	!	!	!	!	!	!	!	!	!LO:TX:t=P:4\:problem	!
.	.	.	.	.	4f/	.	4f/	.	.	.	.	.	.	.	.	4f/	4cc\	.	.	.	4a/	4cc\	.
!	!	!	!	!	!	!	!	!	!	!	!	!	!	!	!	!	!	!	!	!	!	!LO:TX:t=P:4\:problem	!
.	.	.	.	.	8f'/L	.	8f'/L	.	.	.	.	.	.	.	.	4f/	4cc\	.	.	.	4a/	4cc\	.
.	.	.	.	.	8e-'/	.	8e-'/	.	.	.	.	.	.	.	.	.	.	.	.	.	.	.	.
.	.	.	.	.	8d'/	.	8d'/	.	.	.	.	.	.	.	.	4r	4r	.	.	.	4r	4r	.
!	!	!	!	!	!	!	!	!	!	!	!	!	!	!	!	!LO:LB:g=original	!	!	!	!	!	!	!
.	.	.	.	.	8c'/J	.	8c'/J	.	.	.	.	.	.	.	.	.	.	.	.	.	.	.	.
=5	=5	=5	=5	=5	=5	=5	=5	=5	=5	=5	=5	=5	=5	=5	=5	=5	=5	=5	=5	=5	=5	=5	=5
1r	.	1r	1r	.	4B-/	.	4B-/	.	1r	1r	1r	1r	1r	1r	1r	4b-\	4dd\	.	1ryy	1r	4.b-'\	4.dd|\	1r
.	.	.	.	.	4r	.	4r	.	.	.	.	.	.	.	.	4r	4r	.	.	.	.	.	.
.	.	.	.	.	.	.	.	.	.	.	.	.	.	.	.	.	.	.	.	.	8cc'\	8ee-|\	.
.	.	.	.	.	4r	.	4r	.	.	.	.	.	.	.	.	4r	4r	.	.	.	4dd'\	4ff|\	.
.	.	.	.	.	4b-\	.	4b-\	.	.	.	.	.	.	.	.	4dd\	4ff\	.	.	.	4r	4r	.
!	!	!	!	!	!	!	!	!	!	!	!	!	!	!	!	!	!LO:LB:g=original	!	!	!	!	!	!
!	!	!	!	!	!LO:LB:g=origina	!	!LO:LB:g=original	!	!	!	!	!	!	!	!	!	!	!	!	!	!	!	!
=6	=6	=6	=6	=6	=6	=6	=6	=6	=6	=6	=6	=6	=6	=6	=6	=6	=6	=6	=6	=6	=6	=6	=6
1r	.	1r	1r	.	4f/	.	4f/	.	1r	1r	1r	1r	1r	1r	1r	4f/	4cc\	.	1ryy	1r	4.a|\	4.cc|\	1r
.	.	.	.	.	4r	.	4r	.	.	.	.	.	.	.	.	4r	4r	.	.	.	.	.	.
.	.	.	.	.	.	.	.	.	.	.	.	.	.	.	.	.	.	.	.	.	8b-|\	8dd|\	.
.	.	.	.	.	4r	.	4r	.	.	.	.	.	.	.	.	4r	4r	.	.	.	4cc'\	4ee-|\	.
.	.	.	.	.	4f/	.	4f/	.	.	.	.	.	.	.	.	4cc\	4ee-\	.	.	.	4r	4r	.
!	!	!	!	!	!	!	!	!	!	!	!	!	!	!	!	!	!	!	!	!	!LO:LB:g=original	!LO:LB:g=original	!
=7	=7	=7	=7	=7	=7	=7	=7	=7	=7	=7	=7	=7	=7	=7	=7	=7	=7	=7	=7	=7	=7	=7	=7
*	*	*	*	*	*	*	*	*	*	*	*	*	*	*	*	*	*2\right	*	*	*	*	*	*
1r	.	1r	1r	.	4b-\	.	4b-\	.	1r	1r	1r	1r	1r	1r	1r	2b-\	2dd\	.	1ryy	1r	(8g/L	(8ee-\L	1r
.	.	.	.	.	.	.	.	.	.	.	.	.	.	.	.	.	.	.	.	.	8f/)	8dd\)	.
.	.	.	.	.	4b-\	.	4b-\	.	.	.	.	.	.	.	.	.	.	.	.	.	(8e-/	(8cc\	.
.	.	.	.	.	.	.	.	.	.	.	.	.	.	.	.	.	.	.	.	.	8d/J)	8b-\J)	.
.	.	.	.	.	4f/	.	4f/	.	.	.	.	.	.	.	.	2fT/	2ccT\	.	.	.	(8f/L	(8dd\L	.
.	.	.	.	.	.	.	.	.	.	.	.	.	.	.	.	.	.	.	.	.	8e-/)	8cc\)	.
.	.	.	.	.	4f/	.	4f/	.	.	.	.	.	.	.	.	.	.	.	.	.	(8d/	(8b-\	.
.	.	.	.	.	.	.	.	.	.	.	.	.	.	.	.	.	.	.	.	.	8c/J)	8a\J)	.
=8	=8	=8	=8	=8	=8	=8	=8	=8	=8	=8	=8	=8	=8	=8	=8	=8	=8	=8	=8	=8	=8	=8	=8
1r	.	1r	1r	.	4B-/	.	4B-/	.	1r	1r	1r	1r	1r	1r	1r	4d/	4b-\	.	1ryy	1r	4d/	4b-\	1r
.	.	.	.	.	4b-\	.	4b-\	.	.	.	.	.	.	.	.	4d/	4b-\	.	.	.	4d/	4b-\	.
.	.	.	.	.	4B-/	.	4B-/	.	.	.	.	.	.	.	.	4d/	4b-\	.	.	.	4d/	4b-\	.
!	!	!	!	!	!	!	!	!	!	!	!	!	!	!	!	!LO:TX:b:t=finis	!LO:TX:a:t=finis	!	!	!	!	!	!
.	.	.	.	.	4r	.	4r	.	.	.	.	.	.	.	.	4r;	4r;	.	.	.	4r	4r	.
=9	=9	=9	=9	=9	=9	=9	=9	=9	=9	=9	=9	=9	=9	=9	=9	=9	=9	=9	=9	=9	=9	=9	=9
!	!	!	!	!	!	!	!	!	!	!	!	!	!	!	!	!	!	!	!	!	!LO:TX:t=P:problem=powtórka w tt. 9-16 oznaczona znakiem repetycji	!LO:TX:t=P:problem=powtórka w tt. 9-16 oznaczona znakiem repetycji	!
!	!LO:DY:b:t=for	!	!	!LO:DY:b:t=for	!	!LO:DY:b:t=for	!	!LO:DY:b:t=for	!	!	!	!	!	!	!	!LO:TX:t=P:problem=powtórka w tt. 9-16 oznaczona znakiem repetycji	!LO:TX:t=P:problem=powtórka w tt. 9-16 oznaczona znakiem repetycji	!	!	!	!LO:TX:a:t=|	!LO:TX:a:t=|	!
4BB-/	f	1r	4B-/	f	4.b-'\	f	4.dd|\	f	1r	1r	1r	1r	1r	1r	1r	4b-\	4dd\	.	1ryy	1r	4.b-\	4.dd\	1r
4r	.	.	4r	.	.	.	.	.	.	.	.	.	.	.	.	4r	4r	.	.	.	.	.	.
!	!	!	!	!	!	!	!	!	!	!	!	!	!	!	!	!	!	!	!	!	!LO:TX:a:t=|	!LO:TX:a:t=|	!
.	.	.	.	.	8cc'\	.	8ee-|\	.	.	.	.	.	.	.	.	.	.	.	.	.	8cc\	8ee-\	.
!	!	!	!	!	!	!	!	!	!	!	!	!	!	!	!	!	!	!	!	!	!LO:TX:a:t=|	!LO:TX:a:t=|	!
4r	.	.	4r	.	4dd'\	.	4ff|\	.	.	.	.	.	.	.	.	4r	4r	.	.	.	4dd\	4ff\	.
4B-\	.	.	4B-/	.	4r	.	4r	.	.	.	.	.	.	.	.	4dd\	4ff\	.	.	.	4r	4r	.
=10	=10	=10	=10	=10	=10	=10	=10	=10	=10	=10	=10	=10	=10	=10	=10	=10	=10	=10	=10	=10	=10	=10	=10
!	!	!	!	!	!	!	!	!	!	!	!	!	!	!	!	!	!	!	!	!	!LO:TX:t=P:4.\:problem	!	!
!	!	!	!	!	!	!	!	!	!	!	!	!	!	!	!	!	!	!	!	!	!LO:TX:a:t=|	!LO:TX:a:t=|	!
4F\	.	1r	4F/	.	4.a|\	.	4.cc|\	.	1r	1r	1r	1r	1r	1r	1r	4f/	4cc\	.	1ryy	1r	4.a\	4.cc'\	1r
4r	.	.	4r	.	.	.	.	.	.	.	.	.	.	.	.	4r	4r	.	.	.	.	.	.
!	!	!	!	!	!	!	!	!	!	!	!	!	!	!	!	!	!	!	!	!	!LO:TX:t=P:problem=8\	!	!
!	!	!	!	!	!	!	!	!	!	!	!	!	!	!	!	!	!	!	!	!	!LO:TX:a:t=|	!	!
.	.	.	.	.	8b-|\	.	8dd|\	.	.	.	.	.	.	.	.	.	.	.	.	.	8b-\	8dd'\	.
!	!	!	!	!	!	!	!	!	!	!	!	!	!	!	!	!	!	!	!	!	!LO:TX:t=P:4\:problem	!	!
!	!	!	!	!	!	!	!	!	!	!	!	!	!	!	!	!	!	!	!	!	!LO:TX:a:t=|	!	!
4r	.	.	4r	.	4cc'\	.	4ee-'\	.	.	.	.	.	.	.	.	4r	4r	.	.	.	4cc\	4ee-'\	.
4F\	.	.	4F/	.	4r	.	4r	.	.	.	.	.	.	.	.	4cc\	4ee-\	.	.	.	4r	4r	.
=11	=11	=11	=11	=11	=11	=11	=11	=11	=11	=11	=11	=11	=11	=11	=11	=11	=11	=11	=11	=11	=11	=11	=11
!	!	!	!	!	!	!	!	!	!	!	!	!	!	!	!	!	!LO:TX:t=P:4\:problem	!	!	!	!	!LO:TX:t=P:problem=8\	!
4BB-/	.	1r	4B-/	.	(8cc\L	.	(8ee-\L	.	1r	1r	1r	1r	1r	1r	1r	4b-\	4dd\	.	1ryy	1r	(8cc\L	(8ee-\L	1r
!	!	!	!	!	!	!	!	!	!	!	!	!	!	!	!	!	!	!	!	!	!	!LO:TX:t=P:problem=8\	!
.	.	.	.	.	8b-\	.	8dd\)	.	.	.	.	.	.	.	.	.	.	.	.	.	8b-\)	8dd\)	.
!	!	!	!	!	!	!	!	!	!	!	!	!	!	!	!	!	!	!	!	!	!	!LO:TX:t=P:problem=8\	!
4r	.	.	4r	.	8a\	.	(8cc\	.	.	.	.	.	.	.	.	4r	4r	.	.	.	(8a\	(8cc\	.
!	!	!	!	!	!	!	!	!	!	!	!	!	!	!	!	!	!	!	!	!	!	!LO:TX:t=P:problem=8\	!
.	.	.	.	.	8g\J)	.	8b-\J)	.	.	.	.	.	.	.	.	.	.	.	.	.	8g\J)	8b-\J)	.
!	!	!	!	!	!	!	!	!	!	!	!	!	!	!	!	!	!	!	!	!	!	!LO:TX:t=P:problem=8\	!
4r	.	.	4r	.	(8f/L	.	(8a\L	.	.	.	.	.	.	.	.	2r	2r	.	.	.	(8f/L	(8a\L	.
!	!	!	!	!	!	!	!	!	!	!	!	!	!	!	!	!	!	!	!	!	!	!LO:TX:t=P:problem=8\	!
.	.	.	.	.	8a/)	.	8cc\)	.	.	.	.	.	.	.	.	.	.	.	.	.	8a/)	8cc\)	.
!	!	!	!	!	!	!	!	!	!	!	!	!	!	!	!	!	!	!	!	!	!	!LO:TX:t=P:problem=8\	!
4BB-/	.	.	4B-/	.	(8cc/	.	(8ee-\	.	.	.	.	.	.	.	.	.	.	.	.	.	(8cc/	(8ee-\	.
!LO:LB:g=original	!	!	!	!	!	!	!	!	!	!	!	!	!	!	!	!	!	!	!	!	!	!LO:TX:t=P:problem=8\	!
.	.	.	.	.	8b-/J)	.	8dd\J)	.	.	.	.	.	.	.	.	.	.	.	.	.	8b-/J)	8dd\J)	.
=12	=12	=12	=12	=12	=12	=12	=12	=12	=12	=12	=12	=12	=12	=12	=12	=12	=12	=12	=12	=12	=12	=12	=12
!	!	!	!	!	!	!	!	!	!	!	!	!	!	!	!	!	!	!	!	!	!	!LO:TX:t=P:4\:problem	!
4F\	.	1r	4f\	.	4a/	.	4cc\	.	1r	1r	1r	1r	1r	1r	1r	4f/	4cc\	.	1ryy	1r	4a/	4cc\	1r
!	!	!	!	!	!	!	!	!	!	!	!	!	!	!	!	!	!	!	!	!	!	!LO:TX:t=P:4\:problem	!
4FF/	.	.	4F/	.	4a/	.	4cc\	.	.	.	.	.	.	.	.	4f/	4cc\	.	.	.	4a/	4cc\	.
!	!	!	!LO:TX:a:t=|	!	!	!	!	!	!	!	!	!	!	!	!	!	!	!	!	!	!	!LO:TX:t=P:4\:problem	!
8F'\L	.	.	8f\L	.	4a/	.	4cc\	.	.	.	.	.	.	.	.	4f/	4cc\	.	.	.	4a/	4cc\	.
!	!	!	!LO:TX:a:t=|	!	!	!	!	!	!	!	!	!	!	!	!	!	!	!	!	!	!	!	!
8E-'\	.	.	8e-\	.	.	.	.	.	.	.	.	.	.	.	.	.	.	.	.	.	.	.	.
!LO:TX:t=P:problem=8\	!	!	!LO:TX:a:t=|	!	!	!	!	!	!	!	!	!	!	!	!	!	!	!	!	!	!	!	!
8D'\	.	.	8d\	.	4r	.	4r	.	.	.	.	.	.	.	.	4r	4r	.	.	.	4r	4r	.
!LO:TX:t=P:problem=8\	!	!	!LO:TX:a:t=|	!	!LO:LB:g=origina	!	!LO:LB:g=original	!	!	!	!	!	!	!	!	!	!	!	!	!	!	!	!
8C'\J	.	.	8c\J	.	.	.	.	.	.	.	.	.	.	.	.	.	.	.	.	.	.	.	.
=13	=13	=13	=13	=13	=13	=13	=13	=13	=13	=13	=13	=13	=13	=13	=13	=13	=13	=13	=13	=13	=13	=13	=13
4BB-/	.	1r	4B-/	.	4.b-|\	.	4.dd'\	.	1r	1r	1r	1r	1r	1r	1r	4b-\	4dd\	.	1ryy	1r	4.b-'\	4.dd|\	1r
4r	.	.	4r	.	.	.	.	.	.	.	.	.	.	.	.	4r	4r	.	.	.	.	.	.
.	.	.	.	.	8cc|\	.	8ee-'\	.	.	.	.	.	.	.	.	.	.	.	.	.	8cc'\	8ee-|\	.
4r	.	.	4r	.	4dd'\	.	4ff'\	.	.	.	.	.	.	.	.	4r	4r	.	.	.	4dd'\	4ff|\	.
4B-\	.	.	4B-/	.	4r	.	4r	.	.	.	.	.	.	.	.	4dd\	4ff\	.	.	.	4r	4r	.
!	!	!	!	!	!	!	!	!	!	!	!	!	!	!	!	!	!LO:LB:g=original	!	!	!	!	!	!
!	!	!	!LO:LB:g=original	!	!	!	!	!	!	!	!	!	!	!	!	!	!	!	!	!	!	!LO:LB:g=original	!
=14	=14	=14	=14	=14	=14	=14	=14	=14	=14	=14	=14	=14	=14	=14	=14	=14	=14	=14	=14	=14	=14	=14	=14
4F\	.	1r	4F/	.	4.a'\	.	4.cc'\	.	1r	1r	1r	1r	1r	1r	1r	4f/	4cc\	.	1ryy	1r	4.a|\	4.cc|\	1r
4r	.	.	4r	.	.	.	.	.	.	.	.	.	.	.	.	4r	4r	.	.	.	.	.	.
.	.	.	.	.	8b-'\	.	8dd'\	.	.	.	.	.	.	.	.	.	.	.	.	.	8b-|\	8dd|\	.
4r	.	.	4r	.	4cc'\	.	4ee-'\	.	.	.	.	.	.	.	.	4r	4r	.	.	.	4cc'\	4ee-|\	.
4F\	.	.	4F/	.	4r	.	4r	.	.	.	.	.	.	.	.	4cc\	4ee-\	.	.	.	4r	4r	.
!	!	!	!	!	!	!	!	!	!	!	!	!	!	!	!	!	!	!	!	!	!LO:LB:g=original	!	!
=15	=15	=15	=15	=15	=15	=15	=15	=15	=15	=15	=15	=15	=15	=15	=15	=15	=15	=15	=15	=15	=15	=15	=15
4B-\	.	1r	4B-/	.	(8g/L	.	(8ee-\L	.	1r	1r	1r	1r	1r	1r	1r	2b-\	2dd\	.	1ryy	1r	(8g/L	(8ee-\L	1r
.	.	.	.	.	8f/)	.	8dd\)	.	.	.	.	.	.	.	.	.	.	.	.	.	8f/)	8dd\)	.
4BB-/	.	.	4B-/	.	(8e-/	.	(8cc\	.	.	.	.	.	.	.	.	.	.	.	.	.	(8e-/	(8cc\	.
.	.	.	.	.	8d/J)	.	8b-\J)	.	.	.	.	.	.	.	.	.	.	.	.	.	8d/J)	8b-\J)	.
4F\	.	.	4f\	.	(8f/L	.	(8dd\L	.	.	.	.	.	.	.	.	2fT/	2ccT\	.	.	.	(8f/L	(8dd\L	.
.	.	.	.	.	8e-/)	.	8cc\)	.	.	.	.	.	.	.	.	.	.	.	.	.	8e-/)	8cc\)	.
4FF/	.	.	4F/	.	(8d/	.	(8b-\	.	.	.	.	.	.	.	.	.	.	.	.	.	(8d/	(8b-\	.
.	.	.	.	.	8c/J)	.	8a\J)	.	.	.	.	.	.	.	.	.	.	.	.	.	8c/J)	8a\J)	.
=16	=16	=16	=16	=16	=16	=16	=16	=16	=16	=16	=16	=16	=16	=16	=16	=16	=16	=16	=16	=16	=16	=16	=16
4BB-/	.	1r	4B-/	.	4d/	.	4b-\	.	1r	1r	1r	1r	1r	1r	1r	4d/	4b-\	.	1ryy	1r	4d/	4b-\	1r
4B-\	.	.	4B-/	.	4d/	.	4b-\	.	.	.	.	.	.	.	.	4d/	4b-\	.	.	.	4d/	4b-\	.
4BB-/	.	.	4B-/	.	4d/	.	4b-\	.	.	.	.	.	.	.	.	4d/	4b-\	.	.	.	4d/	4b-\	.
!	!	!	!	!	!	!	!	!	!	!	!	!	!	!	!	!LO:TX:a:t=finis	!LO:TX:a:t=finis	!	!	!	!	!	!
4r	.	.	4r	.	4r	.	4r	.	.	.	.	.	.	.	.	4r;	4r;	.	.	.	4r	4r	.
=17	=17	=17	=17	=17	=17	=17	=17	=17	=17	=17	=17	=17	=17	=17	=17	=17	=17	=17	=17	=17	=17	=17	=17
!	!LO:DY:b:t=pia	!	!	!	!	!LO:DY:b:t=pia	!	!LO:DY:b:t=pia	!	!	!	!	!	!	!	!	!	!	!	!	!LO:TX:a:t=|	!	!
4F\	p	1r	1r	.	4.A/	p	4.c/	p	1r	1r	1r	1r	1r	1r	1r	1r	1r	.	1ryy	1r	4.a\	4.cc\	1r
4F\	.	.	.	.	.	.	.	.	.	.	.	.	.	.	.	.	.	.	.	.	.	.	.
!	!	!	!	!	!	!	!	!	!	!	!	!	!	!	!	!	!	!	!	!	!LO:TX:a:t=|	!	!
.	.	.	.	.	8B-/	.	8d/	.	.	.	.	.	.	.	.	.	.	.	.	.	8b-\	8dd\	.
!	!	!	!	!	!	!	!	!	!	!	!	!	!	!	!	!	!	!	!	!	!LO:TX:a:t=|	!	!
4F\	.	.	.	.	4c/	.	4e-/	.	.	.	.	.	.	.	.	.	.	.	.	.	4cc\	4ee-\	.
!	!	!	!	!	!	!	!	!	!	!	!	!	!	!	!	!	!	!	!	!	!LO:TX:a:t=|	!	!
4F\	.	.	.	.	4c/	.	4e-/	.	.	.	.	.	.	.	.	.	.	.	.	.	4cc\	4ee-\	.
!LO:LB:g=original	!	!	!	!	!	!	!	!	!	!	!	!	!	!	!	!	!	!	!	!	!	!	!
=18	=18	=18	=18	=18	=18	=18	=18	=18	=18	=18	=18	=18	=18	=18	=18	=18	=18	=18	=18	=18	=18	=18	=18
4r	.	1r	1r	.	(8c/L	.	(8e-/L	.	1r	1r	1r	1r	1r	1r	1r	1r	1r	.	1ryy	1r	(8cc\L	(8ee-\L	1r
.	.	.	.	.	8B-/)	.	8d/)	.	.	.	.	.	.	.	.	.	.	.	.	.	8b-\)	8dd\)	.
4F\	.	.	.	.	(8d/	.	(8f/	.	.	.	.	.	.	.	.	.	.	.	.	.	(8dd\	(8ff\	.
.	.	.	.	.	8c/J)	.	8e-/J)	.	.	.	.	.	.	.	.	.	.	.	.	.	8cc\J)	8ee-\J)	.
4B-\	.	.	.	.	4B-/	.	4d/	.	.	.	.	.	.	.	.	.	.	.	.	.	4b-\	4dd\	.
4BB-/	.	.	.	.	8r	.	8r	.	.	.	.	.	.	.	.	.	.	.	.	.	8r	8r	.
.	.	.	.	.	8d/	.	8f/	.	.	.	.	.	.	.	.	.	.	.	.	.	8dd\	8ff\	.
!	!	!	!	!	!	!	!LO:LB:g=original	!	!	!	!	!	!	!	!	!	!	!	!	!	!	!	!
=19	=19	=19	=19	=19	=19	=19	=19	=19	=19	=19	=19	=19	=19	=19	=19	=19	=19	=19	=19	=19	=19	=19	=19
4BB-/	.	1r	1r	.	(8g/L	.	(8b-/L	.	1r	1r	1r	1r	1r	1r	1r	1r	1r	.	1ryy	1r	(8gg\L	(8bb-\L	1r
.	.	.	.	.	8f/)	.	8a/)	.	.	.	.	.	.	.	.	.	.	.	.	.	8ff\)	8aa\)	.
4BB-/	.	.	.	.	(8e-/	.	(8g/	.	.	.	.	.	.	.	.	.	.	.	.	.	(8ee-\	(8gg\	.
.	.	.	.	.	8d/J)	.	8f/J)	.	.	.	.	.	.	.	.	.	.	.	.	.	8dd\J)	8ff\J)	.
!	!	!	!	!	!LO:LB:g=origina	!	!	!	!	!	!	!	!	!	!	!	!	!	!	!	!	!	!
4BB-/	.	.	.	.	(8e-/L	.	(8g/L	.	.	.	.	.	.	.	.	.	.	.	.	.	(8ee-\L	(8gg\L	.
.	.	.	.	.	8d/)	.	8f/)	.	.	.	.	.	.	.	.	.	.	.	.	.	8dd\)	8ff\)	.
4BB-/	.	.	.	.	(8c/	.	(8e-/	.	.	.	.	.	.	.	.	.	.	.	.	.	(8cc\	(8ee-\	.
.	.	.	.	.	8B-/J)	.	8d/J)	.	.	.	.	.	.	.	.	.	.	.	.	.	8b-\J)	8dd\J)	.
=20	=20	=20	=20	=20	=20	=20	=20	=20	=20	=20	=20	=20	=20	=20	=20	=20	=20	=20	=20	=20	=20	=20	=20
4r	.	1r	1r	.	(2B-/	.	(2d/	.	1r	1r	1r	1r	1r	1r	1r	1r	1r	.	1ryy	1r	(2b-\	(2dd\	1r
4F\	.	.	.	.	.	.	.	.	.	.	.	.	.	.	.	.	.	.	.	.	.	.	.
2FF/	.	.	.	.	4A/)	.	4c/)	.	.	.	.	.	.	.	.	.	.	.	.	.	4a\)	4cc\)	.
.	.	.	.	.	4r	.	4r	.	.	.	.	.	.	.	.	.	.	.	.	.	4r	4r	.
=21	=21	=21	=21	=21	=21	=21	=21	=21	=21	=21	=21	=21	=21	=21	=21	=21	=21	=21	=21	=21	=21	=21	=21
4F\	.	1r	1r	.	4.A/	.	4.c/	.	1r	1r	1r	1r	1r	1r	1r	1r	1r	.	1ryy	1r	4.a|\	4.cc\	1r
4F\	.	.	.	.	.	.	.	.	.	.	.	.	.	.	.	.	.	.	.	.	.	.	.
.	.	.	.	.	8B-/	.	8d/	.	.	.	.	.	.	.	.	.	.	.	.	.	8b-|\	8dd\	.
4F\	.	.	.	.	4c/	.	4e-/	.	.	.	.	.	.	.	.	.	.	.	.	.	4cc'\	4ee-\	.
4F\	.	.	.	.	4c/	.	4e-/	.	.	.	.	.	.	.	.	.	.	.	.	.	4cc'\	4ee-\	.
!	!	!	!	!	!	!	!	!	!	!	!	!	!	!	!	!	!	!	!	!	!LO:LB:g=original	!	!
=22	=22	=22	=22	=22	=22	=22	=22	=22	=22	=22	=22	=22	=22	=22	=22	=22	=22	=22	=22	=22	=22	=22	=22
4BB-/	.	1r	1r	.	(8B-/L	.	(8d/L	.	1r	1r	1r	1r	1r	1r	1r	1r	1r	.	1ryy	1r	(8b-\L	(8dd\L	1r
.	.	.	.	.	8d/)	.	8f/)	.	.	.	.	.	.	.	.	.	.	.	.	.	8dd\)	8ff\)	.
4BB-/	.	.	.	.	(8g/	.	8b-/	.	.	.	.	.	.	.	.	.	.	.	.	.	(8gg\	(8bb-\	.
.	.	.	.	.	8f/J)	.	8a/J	.	.	.	.	.	.	.	.	.	.	.	.	.	8ff\J)	8aa\J)	.
4BB-/	.	.	.	.	(8g/L	.	(8b-/L	.	.	.	.	.	.	.	.	.	.	.	.	.	(8gg\L	(8bb-\L	.
.	.	.	.	.	8f/)	.	8a/)	.	.	.	.	.	.	.	.	.	.	.	.	.	8ff\)	8aa\)	.
4BB-/	.	.	.	.	(8e-/	.	(8g/	.	.	.	.	.	.	.	.	.	.	.	.	.	(8ee-\	(8gg\	.
.	.	.	.	.	8d/J)	.	8f/J)	.	.	.	.	.	.	.	.	.	.	.	.	.	8dd\J)	8ff\J)	.
=23	=23	=23	=23	=23	=23	=23	=23	=23	=23	=23	=23	=23	=23	=23	=23	=23	=23	=23	=23	=23	=23	=23	=23
4BB-/	.	1r	1r	.	(8d/L	.	(8f/L	.	1r	1r	1r	1r	1r	1r	1r	1r	1r	.	1ryy	1r	(8dd\L	(8ff\L	1r
.	.	.	.	.	8B-/)	.	8d/)	.	.	.	.	.	.	.	.	.	.	.	.	.	8b-\)	8dd\)	.
4E-\	.	.	.	.	(8e-/	.	(8g/	.	.	.	.	.	.	.	.	.	.	.	.	.	(8ee-\	(8gg\	.
.	.	.	.	.	8c/J)	.	8e-/J)	.	.	.	.	.	.	.	.	.	.	.	.	.	8cc\J)	8ee-\J)	.
4F\	.	.	.	.	(8c/L	.	(8e-/L	.	.	.	.	.	.	.	.	.	.	.	.	.	(8cc\L	(8ee-\L	.
.	.	.	.	.	8B-/)	.	8d/)	.	.	.	.	.	.	.	.	.	.	.	.	.	8b-\)	8dd\)	.
4FF/	.	.	.	.	(8B-/	.	(8d/	.	.	.	.	.	.	.	.	.	.	.	.	.	(8b-\	(8dd\	.
!LO:LB:g=original	!	!	!	!	!	!	!	!	!	!	!	!	!	!	!	!	!	!	!	!	!	!LO:TX:t=P:problem=8\	!
.	.	.	.	.	8A/J)	.	8c/J)	.	.	.	.	.	.	.	.	.	.	.	.	.	8a\J)	8cc\J)	.
=24	=24	=24	=24	=24	=24	=24	=24	=24	=24	=24	=24	=24	=24	=24	=24	=24	=24	=24	=24	=24	=24	=24	=24
4BB-/	.	1r	1r	.	2A/	.	(2c/	.	1r	1r	1r	1r	1r	1r	1r	1r	1r	.	1ryy	1r	(2a/	(2cc\	1r
4B-\	.	.	.	.	.	.	.	.	.	.	.	.	.	.	.	.	.	.	.	.	.	.	.
4BB-/	.	.	.	.	4B-/	.	4B-/)	.	.	.	.	.	.	.	.	.	.	.	.	.	4b-/)	4b-\)	.
4r	.	.	.	.	4r	.	4r	.	.	.	.	.	.	.	.	.	.	.	.	.	4r	4r	.
!	!	!	!	!	!	!	!LO:LB:g=original	!	!	!	!	!	!	!	!	!	!	!	!	!	!	!	!
=25	=25	=25	=25	=25	=25	=25	=25	=25	=25	=25	=25	=25	=25	=25	=25	=25	=25	=25	=25	=25	=25	=25	=25
!	!	!	!	!	!	!	!	!	!	!	!	!	!	!	!	!	!	!	!	!	!LO:TX:t=P:problem=powtórka w tt. 25-32 oznaczona znakiem repetycji	!	!
!	!LO:DY:b:t=for	!	!	!LO:DY:b:t=for	!	!LO:DY:b:t=for	!LO:TX:a:t=|	!LO:DY:b:t=for	!	!	!	!	!	!	!	!LO:TX:a:t=|	!	!	!	!	!LO:TX:a:t=|	!LO:TX:t=P:problem=powtórka w tt. 25-32 oznaczona znakiem repetycji	!
4F\	f	1r	4F/	f	4.a\	f	4.cc\	f	1r	1r	1r	1r	1r	1r	1r	4.f/	4.cc\	.	1ryy	1r	4.a\	4.cc\	1r
4F\	.	.	4F/	.	.	.	.	.	.	.	.	.	.	.	.	.	.	.	.	.	.	.	.
!	!	!	!	!	!	!	!LO:TX:a:t=|	!	!	!	!	!	!	!	!	!LO:TX:a:t=|	!	!	!	!	!LO:TX:a:t=|	!	!
.	.	.	.	.	8b-\	.	8dd\	.	.	.	.	.	.	.	.	8b-\	8dd\	.	.	.	8b-\	8dd\	.
!	!	!	!	!	!	!	!	!	!	!	!	!	!	!	!	!LO:TX:a:t=|	!	!	!	!	!LO:TX:a:t=|	!	!
4F\	.	.	4F/	.	4cc\	.	4ee-'\	.	.	.	.	.	.	.	.	4cc\	4ee-\	.	.	.	4cc\	4ee-\	.
!	!	!	!	!	!	!	!LO:TX:a:t=|	!	!	!	!	!	!	!	!	!LO:TX:a:t=|	!	!	!	!	!LO:TX:a:t=|	!	!
4F\	.	.	4F/	.	4cc\	.	4ee-\	.	.	.	.	.	.	.	.	4cc\	4ee-\	.	.	.	4cc\	4ee-\	.
!	!	!	!	!	!	!	!	!	!	!	!	!	!	!	!	!LO:LB:g=original	!	!	!	!	!	!	!
!	!	!	!	!	!LO:LB:g=origina	!	!	!	!	!	!	!	!	!	!	!	!	!	!	!	!	!	!
=26	=26	=26	=26	=26	=26	=26	=26	=26	=26	=26	=26	=26	=26	=26	=26	=26	=26	=26	=26	=26	=26	=26	=26
4r	.	1r	4r	.	(8cc\L	.	(8ee-\L	.	1r	1r	1r	1r	1r	1r	1r	(8cc\L	(8ee-\L	.	1ryy	1r	(8cc\L	(8ee-\L	1r
.	.	.	.	.	8b-\)	.	8dd\)	.	.	.	.	.	.	.	.	8b-\)	8dd\	.	.	.	8b-\)	8dd\)	.
4F\	.	.	4F/	.	(8dd\	.	(8ff\	.	.	.	.	.	.	.	.	(8dd\	8ff\	.	.	.	(8dd\	(8ff\	.
.	.	.	.	.	8cc\J)	.	8ee-\J)	.	.	.	.	.	.	.	.	8cc\J)	8ee-\J)	.	.	.	8cc\J)	8ee-\J)	.
4B-\	.	.	4B-/	.	4b-\	.	4dd\	.	.	.	.	.	.	.	.	4b-\	4dd\	.	.	.	4b-\	4dd\	.
4BB-/	.	.	4B-/	.	8r	.	8r	.	.	.	.	.	.	.	.	4r	4r	.	.	.	8r	8r	.
.	.	.	.	.	8dd\	.	8ff\	.	.	.	.	.	.	.	.	.	.	.	.	.	8dd\	8ff\	.
=27	=27	=27	=27	=27	=27	=27	=27	=27	=27	=27	=27	=27	=27	=27	=27	=27	=27	=27	=27	=27	=27	=27	=27
4BB-/	.	1r	4B-/	.	(8gg\L	.	(8bb-\L	.	1r	1r	1r	1r	1r	1r	1r	1r	1r	.	1ryy	1r	(8gg\L	(8bb-\L	1r
!	!	!	!	!	!	!	!	!	!	!	!	!	!	!	!	!	!LO:LB:g=original	!	!	!	!	!	!
.	.	.	.	.	8ff\)	.	8aa\)	.	.	.	.	.	.	.	.	.	.	.	.	.	8ff\)	8aa\)	.
4BB-/	.	.	4B-/	.	(8ee-\	.	(8gg\	.	.	.	.	.	.	.	.	.	.	.	.	.	(8ee-\	(8gg\	.
.	.	.	.	.	8dd\J)	.	8ff\J)	.	.	.	.	.	.	.	.	.	.	.	.	.	8dd\J)	8ff\J)	.
4BB-/	.	.	4B-/	.	(8ee-\L	.	(8gg\L	.	.	.	.	.	.	.	.	.	.	.	.	.	(8ee-\L	(8gg\L	.
.	.	.	.	.	8dd\)	.	8ff\)	.	.	.	.	.	.	.	.	.	.	.	.	.	8dd\)	8ff\)	.
4BB-/	.	.	4B-/	.	(8cc\	.	(8ee-\	.	.	.	.	.	.	.	.	.	.	.	.	.	(8cc\	(8ee-\	.
!	!	!	!LO:LB:g=original	!	!	!	!	!	!	!	!	!	!	!	!	!	!	!	!	!	!	!	!
.	.	.	.	.	8b-\J)	.	8dd\J)	.	.	.	.	.	.	.	.	.	.	.	.	.	8b-\J)	8dd\J)	.
=28	=28	=28	=28	=28	=28	=28	=28	=28	=28	=28	=28	=28	=28	=28	=28	=28	=28	=28	=28	=28	=28	=28	=28
4r	.	1r	4r	.	(2b-\	.	(2dd\	.	1r	1r	1r	1r	1r	1r	1r	(2b-\	(2dd\	.	1ryy	1r	(2b-\	(2dd\	1r
4F\	.	.	4f\	.	.	.	.	.	.	.	.	.	.	.	.	.	.	.	.	.	.	.	.
2FF/	.	.	2F/	.	4a\)	.	4cc\)	.	.	.	.	.	.	.	.	4f/)	4cc\)	.	.	.	4a\)	4cc\)	.
.	.	.	.	.	4r	.	4r	.	.	.	.	.	.	.	.	4r	4r	.	.	.	4r	4r	.
=29	=29	=29	=29	=29	=29	=29	=29	=29	=29	=29	=29	=29	=29	=29	=29	=29	=29	=29	=29	=29	=29	=29	=29
!	!	!	!	!	!LO:TX:a:t=|	!	!	!	!	!	!	!	!	!	!	!LO:TX:a:t=|	!	!	!	!	!	!	!
4F\	.	1r	4F/	.	4.a\	.	4.cc'\	.	1r	1r	1r	1r	1r	1r	1r	4.f/	4.cc\	.	1ryy	1r	4.a|\	4.cc\	1r
4F\	.	.	4F/	.	.	.	.	.	.	.	.	.	.	.	.	.	.	.	.	.	.	.	.
!	!	!	!	!	!LO:TX:a:t=|	!	!	!	!	!	!	!	!	!	!	!LO:TX:a:t=|	!	!	!	!	!	!	!
.	.	.	.	.	8b-\	.	8dd'\	.	.	.	.	.	.	.	.	8b-\	8dd\	.	.	.	8b-|\	8dd\	.
!	!	!	!	!	!LO:TX:a:t=|	!	!	!	!	!	!	!	!	!	!	!	!	!	!	!	!	!	!
4F\	.	.	4F/	.	4cc\	.	4ee-'\	.	.	.	.	.	.	.	.	4cc\	4ee-\	.	.	.	4cc'\	4ee-\	.
!	!	!	!	!	!LO:TX:a:t=|	!	!	!	!	!	!	!	!	!	!	!	!	!	!	!	!	!	!
4F\	.	.	4F/	.	4cc\	.	4ee-'\	.	.	.	.	.	.	.	.	4cc\	4ee-\	.	.	.	4cc'\	4ee-\	.
!	!	!	!	!	!	!	!	!	!	!	!	!	!	!	!	!	!	!	!	!	!LO:LB:g=original	!	!
!LO:LB:g=original	!	!	!	!	!	!	!	!	!	!	!	!	!	!	!	!	!	!	!	!	!	!	!
=30	=30	=30	=30	=30	=30	=30	=30	=30	=30	=30	=30	=30	=30	=30	=30	=30	=30	=30	=30	=30	=30	=30	=30
4BB-/	.	1r	4B-/	.	(8b-\L	.	(8dd\L	.	1r	1r	1r	1r	1r	1r	1r	4b-\	4dd\	.	1ryy	1r	(8b-\L	(8dd\L	1r
.	.	.	.	.	8dd\)	.	8ff\)	.	.	.	.	.	.	.	.	.	.	.	.	.	8dd\)	8ff\)	.
4BB-/	.	.	4B-/	.	(8gg\	.	(8bb-\	.	.	.	.	.	.	.	.	4r	4r	.	.	.	(8gg\	(8bb-\	.
.	.	.	.	.	8ff\J)	.	8aa\J)	.	.	.	.	.	.	.	.	.	.	.	.	.	8ff\J)	8aa\J)	.
!	!	!	!	!	!	!	!LO:LB:g=original	!	!	!	!	!	!	!	!	!	!	!	!	!	!	!LO:LB:g=original	!
4BB-/	.	.	4B-/	.	(8gg\L	.	(8bb-\L	.	.	.	.	.	.	.	.	2r	2r	.	.	.	(8gg\L	(8bb-\L	.
.	.	.	.	.	8ff\)	.	8aa\)	.	.	.	.	.	.	.	.	.	.	.	.	.	8ff\)	8aa\)	.
4BB-/	.	.	4B-/	.	(8ee-\	.	(8gg\	.	.	.	.	.	.	.	.	.	.	.	.	.	(8ee-\	(8gg\	.
.	.	.	.	.	8dd\J)	.	8ff\J)	.	.	.	.	.	.	.	.	.	.	.	.	.	8dd\J)	8ff\J)	.
=31	=31	=31	=31	=31	=31	=31	=31	=31	=31	=31	=31	=31	=31	=31	=31	=31	=31	=31	=31	=31	=31	=31	=31
4BB-/	.	1r	4B-/	.	(8dd\L	.	(8ff\L	.	1r	1r	1r	1r	1r	1r	1r	(8dd\L	(8ff\L	.	1ryy	1r	(8dd\L	(8ff\L	1r
.	.	.	.	.	8b-\)	.	8dd\)	.	.	.	.	.	.	.	.	8b-\	8dd\	.	.	.	8b-\)	8dd\)	.
4E-\	.	.	4e-\	.	(8ee-\	.	(8gg\	.	.	.	.	.	.	.	.	8ee-\	8gg\)	.	.	.	(8ee-\	(8gg\	.
.	.	.	.	.	8cc\J)	.	8ee-\J)	.	.	.	.	.	.	.	.	8cc\J)	8ee-\J	.	.	.	8cc\J)	8ee-\J)	.
4F\	.	.	4f\	.	(8cc\L	.	(8ee-\L	.	.	.	.	.	.	.	.	(8cc\L	8ee-\L	.	.	.	(8cc\L	(8ee-\L	.
.	.	.	.	.	8b-\)	.	8dd\)	.	.	.	.	.	.	.	.	8b-\)	(8dd\	.	.	.	8b-\)	8dd\)	.
4FF/	.	.	4F/	.	(8b-\	.	(8dd\	.	.	.	.	.	.	.	.	(8b-\	8dd\)	.	.	.	(8b-\	(8dd\	.
!	!	!	!	!	!	!	!	!	!	!	!	!	!	!	!	!	!	!	!	!	!	!LO:TX:t=P:problem=8\	!
.	.	.	.	.	8a\J)	.	8cc\J)	.	.	.	.	.	.	.	.	8f\J)	8cc\J	.	.	.	8a\J)	8cc\J)	.
!	!	!	!	!	!	!	!	!	!	!	!	!	!	!	!	!LO:LB:g=original	!	!	!	!	!	!	!
!	!	!	!	!	!LO:LB:g=origina	!	!	!	!	!	!	!	!	!	!	!	!	!	!	!	!	!	!
=32	=32	=32	=32	=32	=32	=32	=32	=32	=32	=32	=32	=32	=32	=32	=32	=32	=32	=32	=32	=32	=32	=32	=32
4BB-/	.	1r	4B-/	.	(2a/	.	2cc\	.	1r	1r	1r	1r	1r	1r	1r	(2f/	(2cc\	.	1ryy	1r	(2a/	(2cc\	1r
4B-\	.	.	4B-/	.	.	.	.	.	.	.	.	.	.	.	.	.	.	.	.	.	.	.	.
4BB-/	.	.	4B-/	.	4b-/)	.	4b-\	.	.	.	.	.	.	.	.	4d/)	4b-\)	.	.	.	4b-/)	4b-\)	.
!	!	!	!	!	!	!	!	!	!	!	!	!	!	!	!	!LO:TX:t=P:problem=wężowate segno	!LO:TX:t=P:problem=wężowate segno	!	!	!	!	!	!
4r	.	.	4r	.	4r	.	4r	.	.	.	.	.	.	.	.	4r	4r	.	.	.	4r	4r	.
!	!	!	!	!	!	!	!	!	!	!	!	!	!	!	!	!	!LO:LB:g=original	!	!	!	!	!	!
!	!	!	!	!	!	!	!	!	!	!	!	!	!	!	!	!LO:LB:g=original	!	!	!	!	!	!	!
=33	=33	=33	=33	=33	=33	=33	=33	=33	=33	=33	=33	=33	=33	=33	=33	=33	=33	=33	=33	=33	=33	=33	=33
!	!	!	!	!	!	!	!	!	!	!	!	!	!	!	!	!LO:TX:t=P:problem=przepisuję tu takty 1-8	!LO:TX:t=P:problem=przepisuję tu takty 1-8	!	!	!	!	!	!
!	!	!	!	!	!	!LO:DY:b:t=pia	!	!LO:DY:b:t=pia	!	!	!	!	!	!	!	!LO:TX:a:t=dal Segno	!LO:TX:a:t=dal Segno	!	!	!	!	!	!
1r	.	1r	1r	.	4B-/	p	4B-/	p	1r	1r	1r	1r	1r	1r	1r	4b-\	4dd\	.	1ryy	1r	4.b-|\	4.dd|\	1r
.	.	.	.	.	4r	.	4r	.	.	.	.	.	.	.	.	4r	4r	.	.	.	.	.	.
.	.	.	.	.	.	.	.	.	.	.	.	.	.	.	.	.	.	.	.	.	8cc|\	8ee-|\	.
.	.	.	.	.	4r	.	4r	.	.	.	.	.	.	.	.	4r	4r	.	.	.	4dd'\	4ff'\	.
.	.	.	.	.	4b-\	.	4b-\	.	.	.	.	.	.	.	.	4dd\	4ff\	.	.	.	4r	4r	.
=34	=34	=34	=34	=34	=34	=34	=34	=34	=34	=34	=34	=34	=34	=34	=34	=34	=34	=34	=34	=34	=34	=34	=34
!	!	!	!	!	!	!	!	!	!	!	!	!	!	!	!	!	!	!	!	!	!	!LO:TX:a:t=|	!
1r	.	1r	1r	.	4f/	.	4f/	.	1r	1r	1r	1r	1r	1r	1r	4f/	4cc\	.	1ryy	1r	4.a'\	4.cc\	1r
.	.	.	.	.	4r	.	4r	.	.	.	.	.	.	.	.	4r	4r	.	.	.	.	.	.
!	!	!	!	!	!	!	!	!	!	!	!	!	!	!	!	!	!	!	!	!	!	!LO:TX:a:t=|	!
.	.	.	.	.	.	.	.	.	.	.	.	.	.	.	.	.	.	.	.	.	8b-'\	8dd\	.
!	!	!	!	!	!	!	!	!	!	!	!	!	!	!	!	!	!	!	!	!	!	!LO:TX:a:t=|	!
.	.	.	.	.	4r	.	4r	.	.	.	.	.	.	.	.	4r	4r	.	.	.	4cc'\	4ee-\	.
.	.	.	.	.	4f/	.	4f/	.	.	.	.	.	.	.	.	4cc\	4ee-\	.	.	.	4r	4r	.
=35	=35	=35	=35	=35	=35	=35	=35	=35	=35	=35	=35	=35	=35	=35	=35	=35	=35	=35	=35	=35	=35	=35	=35
!	!	!	!	!	!	!	!	!	!	!	!	!	!	!	!	!	!LO:TX:t=P:4\:problem	!	!	!	!	!	!
1r	.	1r	1r	.	4B-/	.	4B-/	.	1r	1r	1r	1r	1r	1r	1r	4b-\	4dd\	.	1ryy	1r	(8cc\L	(8ee-\L	1r
.	.	.	.	.	.	.	.	.	.	.	.	.	.	.	.	.	.	.	.	.	8b-\	8dd\)	.
.	.	.	.	.	4r	.	4r	.	.	.	.	.	.	.	.	4r	4r	.	.	.	8a\)	(8cc\	.
.	.	.	.	.	.	.	.	.	.	.	.	.	.	.	.	.	.	.	.	.	8g\J	8b-\J)	.
.	.	.	.	.	4r	.	4r	.	.	.	.	.	.	.	.	2r	2r	.	.	.	(8f/L	(8a\L	.
.	.	.	.	.	.	.	.	.	.	.	.	.	.	.	.	.	.	.	.	.	8a/)	8cc\)	.
.	.	.	.	.	4B-/	.	4B-/	.	.	.	.	.	.	.	.	.	.	.	.	.	(8cc/	(8ee-\	.
.	.	.	.	.	.	.	.	.	.	.	.	.	.	.	.	.	.	.	.	.	8b-/J)	8dd\J)	.
=36	=36	=36	=36	=36	=36	=36	=36	=36	=36	=36	=36	=36	=36	=36	=36	=36	=36	=36	=36	=36	=36	=36	=36
1r	.	1r	1r	.	4f/	.	4f'/	.	1r	1r	1r	1r	1r	1r	1r	4f/	4cc\	.	1ryy	1r	4a/	4cc\	1r
.	.	.	.	.	4f/	.	4f'/	.	.	.	.	.	.	.	.	4f/	4cc\	.	.	.	4a/	4cc\	.
.	.	.	.	.	8f'/L	.	8f'/L	.	.	.	.	.	.	.	.	4f/	4cc\	.	.	.	4a/	4cc\	.
.	.	.	.	.	8e-'/	.	8e-'/	.	.	.	.	.	.	.	.	.	.	.	.	.	.	.	.
.	.	.	.	.	8d'/	.	8d'/	.	.	.	.	.	.	.	.	4r	4r	.	.	.	4r	4r	.
!	!	!	!	!	!	!	!	!	!	!	!	!	!	!	!	!LO:LB:g=original	!	!	!	!	!	!	!
.	.	.	.	.	8c'/J	.	8c'/J	.	.	.	.	.	.	.	.	.	.	.	.	.	.	.	.
!	!	!	!	!	!	!	!LO:LB:g=original	!	!	!	!	!	!	!	!	!	!	!	!	!	!	!	!
=37	=37	=37	=37	=37	=37	=37	=37	=37	=37	=37	=37	=37	=37	=37	=37	=37	=37	=37	=37	=37	=37	=37	=37
1r	.	1r	1r	.	4B-/	.	4B-/	.	1r	1r	1r	1r	1r	1r	1r	4b-\	4dd\	.	1ryy	1r	4.b-|\	4.dd|\	1r
.	.	.	.	.	4r	.	4r	.	.	.	.	.	.	.	.	4r	4r	.	.	.	.	.	.
.	.	.	.	.	.	.	.	.	.	.	.	.	.	.	.	.	.	.	.	.	8cc|\	8ee-|\	.
.	.	.	.	.	4r	.	4r	.	.	.	.	.	.	.	.	4r	4r	.	.	.	4dd|\	4ff|\	.
.	.	.	.	.	4b-\	.	4b-\	.	.	.	.	.	.	.	.	4dd\	4ff\	.	.	.	4r	4r	.
!	!	!	!	!	!	!	!	!	!	!	!	!	!	!	!	!	!LO:LB:g=original	!	!	!	!	!	!
=38	=38	=38	=38	=38	=38	=38	=38	=38	=38	=38	=38	=38	=38	=38	=38	=38	=38	=38	=38	=38	=38	=38	=38
1r	.	1r	1r	.	4f/	.	4f/	.	1r	1r	1r	1r	1r	1r	1r	4f/	4cc\	.	1ryy	1r	4.a'\	4.cc|\	1r
.	.	.	.	.	4r	.	4r	.	.	.	.	.	.	.	.	4r	4r	.	.	.	.	.	.
.	.	.	.	.	.	.	.	.	.	.	.	.	.	.	.	.	.	.	.	.	8b-'\	8dd|\	.
.	.	.	.	.	4r	.	4r	.	.	.	.	.	.	.	.	4r	4r	.	.	.	4cc'\	4ee-|\	.
.	.	.	.	.	4f/	.	4f/	.	.	.	.	.	.	.	.	4cc\	4ee-\	.	.	.	4r	4r	.
=39	=39	=39	=39	=39	=39	=39	=39	=39	=39	=39	=39	=39	=39	=39	=39	=39	=39	=39	=39	=39	=39	=39	=39
1r	.	1r	1r	.	4b-\	.	4b-\	.	1r	1r	1r	1r	1r	1r	1r	2b-\	2dd\	.	1ryy	1r	(8g/L	(8ee-\L	1r
.	.	.	.	.	.	.	.	.	.	.	.	.	.	.	.	.	.	.	.	.	8f/)	8dd\)	.
.	.	.	.	.	4b-\	.	4b-\	.	.	.	.	.	.	.	.	.	.	.	.	.	(8e-/	(8cc\	.
.	.	.	.	.	.	.	.	.	.	.	.	.	.	.	.	.	.	.	.	.	8d/J)	8b-\J)	.
.	.	.	.	.	4f/	.	4f/	.	.	.	.	.	.	.	.	2fT/	2ccT\	.	.	.	(8f/L	(8dd\L	.
.	.	.	.	.	.	.	.	.	.	.	.	.	.	.	.	.	.	.	.	.	8e-/)	8cc\)	.
.	.	.	.	.	4f/	.	4f/	.	.	.	.	.	.	.	.	.	.	.	.	.	(8d/	(8b-\	.
!	!	!	!	!	!LO:LB:g=origina	!	!	!	!	!	!	!	!	!	!	!	!	!	!	!	!	!	!
.	.	.	.	.	.	.	.	.	.	.	.	.	.	.	.	.	.	.	.	.	8c/J)	8a\J)	.
=40	=40	=40	=40	=40	=40	=40	=40	=40	=40	=40	=40	=40	=40	=40	=40	=40	=40	=40	=40	=40	=40	=40	=40
1r	.	1r	1r	.	4B-/	.	4B-/	.	1r	1r	1r	1r	1r	1r	1r	4d/	4b-\	.	1ryy	1r	4d/	4b-\	1r
.	.	.	.	.	4b-\	.	4b-\	.	.	.	.	.	.	.	.	4d/	4b-\	.	.	.	4d/	4b-\	.
.	.	.	.	.	4B-/	.	4B-/	.	.	.	.	.	.	.	.	4d/	4b-\	.	.	.	4d/	4b-\	.
!	!	!	!	!	!	!	!	!	!	!	!	!	!	!	!	!LO:TX:a:t=finis	!LO:TX:a:t=finis	!	!	!	!	!	!
.	.	.	.	.	4r	.	4r	.	.	.	.	.	.	.	.	4r;	4r;	.	.	.	4r	4r	.
!	!	!	!	!	!	!	!	!	!	!	!	!	!	!	!	!LO:LB:g=original	!	!	!	!	!	!	!
=41	=41	=41	=41	=41	=41	=41	=41	=41	=41	=41	=41	=41	=41	=41	=41	=41	=41	=41	=41	=41	=41	=41	=41
!	!	!	!	!	!	!	!	!	!	!	!	!	!	!	!	!LO:TX:t=P:problem=powtórka w tt. 41-48 oznaczona znakiem repetycji (repetycja wynikająca z kresek w ramach segno)	!LO:TX:t=P:problem=przepisuję tu takty 1-8	!	!	!	!	!	!
!	!LO:DY:b:t=for	!	!	!	!	!LO:DY:b:t=for	!	!LO:DY:b:t=for	!	!	!	!	!	!	!	!LO:TX:t=P:problem=przepisuję tu takty 1-8	!LO:TX:t=P:problem=powtórka w tt. 41-48 oznaczona znakiem repetycji (repetycja wynikająca z kresek w ramach segno)	!	!	!	!LO:TX:t=P:problem=powtórka w tt. 41-48 oznaczona znakiem repetycji	!LO:TX:t=P:problem=powtórka w tt. 41-48 oznaczona znakiem repetycji	!
4BB-/	f	1r	4B-/	.	4.b-'\	f	4.dd'\	f	1r	1r	1r	1r	1r	1r	1r	4b-\	4dd\	.	1ryy	1r	4.b-|\	4.dd|\	1r
4r	.	.	4r	.	.	.	.	.	.	.	.	.	.	.	.	4r	4r	.	.	.	.	.	.
.	.	.	.	.	8cc'\	.	8ee-'\	.	.	.	.	.	.	.	.	.	.	.	.	.	8cc|\	8ee-|\	.
4r	.	.	4r	.	4dd'\	.	4ff'\	.	.	.	.	.	.	.	.	4r	4r	.	.	.	4dd'\	4ff'\	.
4B-\	.	.	4B-/	.	4r	.	4r	.	.	.	.	.	.	.	.	4dd\	4ff\	.	.	.	4r	4r	.
!	!	!	!LO:LB:g=original	!	!	!	!	!	!	!	!	!	!	!	!	!	!	!	!	!	!	!	!
=42	=42	=42	=42	=42	=42	=42	=42	=42	=42	=42	=42	=42	=42	=42	=42	=42	=42	=42	=42	=42	=42	=42	=42
!	!	!	!	!	!	!	!	!	!	!	!	!	!	!	!	!	!	!	!	!	!	!LO:TX:a:t=|	!
4F\	.	1r	4F/	.	4.a|\	.	4.cc'\	.	1r	1r	1r	1r	1r	1r	1r	4f/	4cc\	.	1ryy	1r	4.a'\	4.cc\	1r
4r	.	.	4r	.	.	.	.	.	.	.	.	.	.	.	.	4r	4r	.	.	.	.	.	.
!	!	!	!	!	!	!	!	!	!	!	!	!	!	!	!	!	!	!	!	!	!	!LO:TX:a:t=|	!
.	.	.	.	.	8b-|\	.	8dd'\	.	.	.	.	.	.	.	.	.	.	.	.	.	8b-'\	8dd\	.
!	!	!	!	!	!	!	!	!	!	!	!	!	!	!	!	!	!	!	!	!	!	!LO:TX:a:t=|	!
4r	.	.	4r	.	4cc'\	.	4ee-'\	.	.	.	.	.	.	.	.	4r	4r	.	.	.	4cc'\	4ee-\	.
4F\	.	.	4F/	.	4r	.	4r	.	.	.	.	.	.	.	.	4cc\	4ee-\	.	.	.	4r	4r	.
=43	=43	=43	=43	=43	=43	=43	=43	=43	=43	=43	=43	=43	=43	=43	=43	=43	=43	=43	=43	=43	=43	=43	=43
!	!	!	!	!	!	!	!	!	!	!	!	!	!	!	!	!	!LO:TX:t=P:4\:problem	!	!	!	!	!	!
4BB-/	.	1r	4B-/	.	(8cc\L	.	(8ee-\L	.	1r	1r	1r	1r	1r	1r	1r	4b-\	4dd\	.	1ryy	1r	(8cc\L	(8ee-\L	1r
.	.	.	.	.	8b-\)	.	8dd\)	.	.	.	.	.	.	.	.	.	.	.	.	.	8b-\	8dd\)	.
4r	.	.	4r	.	(8a\	.	(8cc\	.	.	.	.	.	.	.	.	4r	4r	.	.	.	8a\)	(8cc\	.
.	.	.	.	.	8g\J)	.	8b-\J)	.	.	.	.	.	.	.	.	.	.	.	.	.	8g\J	8b-\J)	.
4r	.	.	4r	.	(8f\L	.	(8a\L	.	.	.	.	.	.	.	.	2r	2r	.	.	.	(8f/L	(8a\L	.
.	.	.	.	.	8a\)	.	8cc\)	.	.	.	.	.	.	.	.	.	.	.	.	.	8a/)	8cc\)	.
4BB-/	.	.	4B-/	.	(8cc\	.	(8ee-\	.	.	.	.	.	.	.	.	.	.	.	.	.	(8cc/	(8ee-\	.
!LO:LB:g=original	!	!	!	!	!	!	!	!	!	!	!	!	!	!	!	!	!	!	!	!	!	!	!
.	.	.	.	.	8b-\J)	.	8dd\J)	.	.	.	.	.	.	.	.	.	.	.	.	.	8b-/J)	8dd\J)	.
!	!	!	!	!	!	!	!LO:LB:g=original	!	!	!	!	!	!	!	!	!	!	!	!	!	!	!	!
=44	=44	=44	=44	=44	=44	=44	=44	=44	=44	=44	=44	=44	=44	=44	=44	=44	=44	=44	=44	=44	=44	=44	=44
4F\	.	1r	4f\	.	4a\	.	4cc\	.	1r	1r	1r	1r	1r	1r	1r	4f/	4cc\	.	1ryy	1r	4a/	4cc\	1r
4FF/	.	.	4F/	.	4a\	.	4cc\	.	.	.	.	.	.	.	.	4f/	4cc\	.	.	.	4a/	4cc\	.
!LO:TX:t=P:problem=8\	!	!	!LO:TX:a:t=|	!	!	!	!	!	!	!	!	!	!	!	!	!	!	!	!	!	!	!	!
8F'\L	.	.	8f\L	.	4a\	.	4cc\	.	.	.	.	.	.	.	.	4f/	4cc\	.	.	.	4a/	4cc\	.
!LO:TX:t=P:problem=8\	!	!	!LO:TX:a:t=|	!	!	!	!	!	!	!	!	!	!	!	!	!	!	!	!	!	!	!	!
8E-'\	.	.	8e-\	.	.	.	.	.	.	.	.	.	.	.	.	.	.	.	.	.	.	.	.
!LO:TX:t=P:problem=8\	!	!	!LO:TX:a:t=|	!	!	!	!	!	!	!	!	!	!	!	!	!	!	!	!	!	!	!	!
8D'\	.	.	8d\	.	4r	.	4r	.	.	.	.	.	.	.	.	4r	4r	.	.	.	4r	4r	.
!	!	!	!	!	!	!	!	!	!	!	!	!	!	!	!	!LO:LB:g=original	!	!	!	!	!LO:LB:g=original	!	!
!	!	!	!LO:TX:a:t=|	!	!	!	!	!	!	!	!	!	!	!	!	!	!	!	!	!	!	!	!
8C'\J	.	.	8c\J	.	.	.	.	.	.	.	.	.	.	.	.	.	.	.	.	.	.	.	.
=45	=45	=45	=45	=45	=45	=45	=45	=45	=45	=45	=45	=45	=45	=45	=45	=45	=45	=45	=45	=45	=45	=45	=45
4BB-/	.	1r	4B-/	.	4.b-'\	.	4.dd'\	.	1r	1r	1r	1r	1r	1r	1r	4b-\	4dd\	.	1ryy	1r	4.b-|\	4.dd|\	1r
4r	.	.	4r	.	.	.	.	.	.	.	.	.	.	.	.	4r	4r	.	.	.	.	.	.
.	.	.	.	.	8cc'\	.	8ee-'\	.	.	.	.	.	.	.	.	.	.	.	.	.	8cc|\	8ee-|\	.
!	!	!	!	!	!LO:TX:a:t=|	!	!	!	!	!	!	!	!	!	!	!	!	!	!	!	!	!	!
4r	.	.	4r	.	4dd\	.	4ff'\	.	.	.	.	.	.	.	.	4r	4r	.	.	.	4dd|\	4ff|\	.
4B-\	.	.	4B-/	.	4r	.	4r	.	.	.	.	.	.	.	.	4dd\	4ff\	.	.	.	4r	4r	.
!	!	!	!	!	!	!	!	!	!	!	!	!	!	!	!	!	!LO:LB:g=original	!	!	!	!	!LO:LB:g=original	!
=46	=46	=46	=46	=46	=46	=46	=46	=46	=46	=46	=46	=46	=46	=46	=46	=46	=46	=46	=46	=46	=46	=46	=46
4F\	.	1r	4F/	.	4.a'\	.	4.cc'\	.	1r	1r	1r	1r	1r	1r	1r	4f/	4cc\	.	1ryy	1r	4.a'\	4.cc|\	1r
4r	.	.	4r	.	.	.	.	.	.	.	.	.	.	.	.	4r	4r	.	.	.	.	.	.
.	.	.	.	.	8b-'\	.	8dd'\	.	.	.	.	.	.	.	.	.	.	.	.	.	8b-'\	8dd|\	.
4r	.	.	4r	.	4cc'\	.	4ee-'\	.	.	.	.	.	.	.	.	4r	4r	.	.	.	4cc'\	4ee-|\	.
4F\	.	.	4F/	.	4r	.	4r	.	.	.	.	.	.	.	.	4cc\	4ee-\	.	.	.	4r	4r	.
!	!	!	!	!	!LO:LB:g=origina	!	!	!	!	!	!	!	!	!	!	!	!	!	!	!	!	!	!
=47	=47	=47	=47	=47	=47	=47	=47	=47	=47	=47	=47	=47	=47	=47	=47	=47	=47	=47	=47	=47	=47	=47	=47
4B-\	.	1r	4B-/	.	(8g/L	.	(8ee-\L	.	1r	1r	1r	1r	1r	1r	1r	2b-\	2dd\	.	1ryy	1r	(8g/L	(8ee-\L	1r
.	.	.	.	.	8f/)	.	8dd\)	.	.	.	.	.	.	.	.	.	.	.	.	.	8f/)	8dd\)	.
4BB-/	.	.	4B-/	.	(8e-/	.	(8cc\	.	.	.	.	.	.	.	.	.	.	.	.	.	(8e-/	(8cc\	.
.	.	.	.	.	8d/J)	.	8b-\J)	.	.	.	.	.	.	.	.	.	.	.	.	.	8d/J)	8b-\J)	.
4F\	.	.	4f\	.	(8f/L	.	(8dd\L	.	.	.	.	.	.	.	.	2fT/	2ccT\	.	.	.	(8f/L	(8dd\L	.
.	.	.	.	.	8e-/)	.	8cc\)	.	.	.	.	.	.	.	.	.	.	.	.	.	8e-/)	8cc\)	.
4FF/	.	.	4F/	.	(8d/	.	(8b-\	.	.	.	.	.	.	.	.	.	.	.	.	.	(8d/	(8b-\	.
.	.	.	.	.	8c/J)	.	8a\J)	.	.	.	.	.	.	.	.	.	.	.	.	.	8c/J)	8a\J)	.
=48	=48	=48	=48	=48	=48	=48	=48	=48	=48	=48	=48	=48	=48	=48	=48	=48	=48	=48	=48	=48	=48	=48	=48
4BB-/	.	1r	4B-/	.	4d/	.	4b-\	.	1r	1r	1r	1r	1r	1r	1r	4d/	4b-\	.	1ryy	1r	4d/	4b-\	1r
4B-\	.	.	4B-/	.	4d/	.	4b-\	.	.	.	.	.	.	.	.	4d/	4b-\	.	.	.	4d/	4b-\	.
4BB-/	.	.	4B-/	.	4d/	.	4b-\	.	.	.	.	.	.	.	.	4d/	4b-\	.	.	.	4d/	4b-\	.
!	!	!	!	!	!	!	!	!	!	!	!	!	!	!	!	!LO:TX:a:t=finis	!LO:TX:a:t=finis	!	!	!	!	!	!
4r	.	.	4r	.	4r	.	4r	.	.	.	.	.	.	.	.	4r;	4r;	.	.	.	4r	4r	.
!LO:LB:g=original	!	!	!LO:LB:g=original	!	!	!	!	!	!	!	!	!	!	!	!	!	!	!	!	!	!	!	!
=49!|:	=49!|:	=49!|:	=49!|:	=49!|:	=49!|:	=49!|:	=49!|:	=49!|:	=49!|:	=49!|:	=49!|:	=49!|:	=49!|:	=49!|:	=49!|:	=49!|:	=49!|:	=49!|:	=49!|:	=49!|:	=49!|:	=49!|:	=49!|:
!	!LO:DY:b:t=for	!	!	!LO:DY:b:t=for	!	!LO:DY:b:t=for	!	!LO:DY:b:t=for	!	!	!	!	!	!	!	!	!	!	!	!	!	!	!
8G\L	f	1r	8g\L	f	8g/L	f	8g/L	f	1r	1r	1r	1r	1r	1r	1r	1r	1r	.	1ryy	1r	8g/L	8g/L	1r
16.G\L	.	.	16.g\L	.	16.g/L	.	16.g/L	.	.	.	.	.	.	.	.	.	.	.	.	.	16.g/L	16.g/L	.
32G\JJk	.	.	32g\JJk	.	32g/JJk	.	32g/JJk	.	.	.	.	.	.	.	.	.	.	.	.	.	32g/JJk	32g/JJk	.
8G\L	.	.	8g\L	.	8g/L	.	8g/L	.	.	.	.	.	.	.	.	.	.	.	.	.	8g/L	8g/L	.
8G\J	.	.	8g\J	.	8g/J	.	8g/J	.	.	.	.	.	.	.	.	.	.	.	.	.	8g/J	8g/J	.
!	!	!	!	!	!	!	!LO:LB:g=original	!	!	!	!	!	!	!	!	!	!	!	!	!	!	!LO:TX:a:t=|	!
8B-'\L	.	.	8b-'\L	.	8b-'/L	.	8b-/L	.	.	.	.	.	.	.	.	.	.	.	.	.	8b-'/L	8b-/L	.
!	!	!	!	!	!	!	!	!	!	!	!	!	!	!	!	!	!	!	!	!	!	!LO:TX:a:t=|	!
8G'\	.	.	8g'\	.	8g'/	.	8g/	.	.	.	.	.	.	.	.	.	.	.	.	.	8g'/	8g/	.
!	!	!	!	!	!	!	!	!	!	!	!	!	!	!	!	!	!	!	!	!	!	!LO:TX:a:t=|	!
8G'\	.	.	8g'\	.	8g'/	.	8g/	.	.	.	.	.	.	.	.	.	.	.	.	.	8g'/	8g/	.
!	!	!	!	!	!	!	!	!	!	!	!	!	!	!	!	!	!	!	!	!	!	!LO:TX:a:t=|	!
8G'\J	.	.	8g'\J	.	8g'/J	.	8g/J	.	.	.	.	.	.	.	.	.	.	.	.	.	8g'/J	8g/J	.
=50	=50	=50	=50	=50	=50	=50	=50	=50	=50	=50	=50	=50	=50	=50	=50	=50	=50	=50	=50	=50	=50	=50	=50
(8c#X\L	.	1r	(8cc#X\L	.	(8cc#X\L	.	(8cc#X\L	.	1r	1r	1r	1r	1r	1r	1r	1r	1r	.	1ryy	1r	(8cc#X\L	(8cc#X\L	1r
8d\J)	.	.	8dd\J)	.	8dd\J)	.	8dd\J)	.	.	.	.	.	.	.	.	.	.	.	.	.	8dd\J)	8dd\J)	.
(8A\L	.	.	(8a\L	.	(8a\L	.	(8a\L	.	.	.	.	.	.	.	.	.	.	.	.	.	8a\L	(8a\L	.
8B-\J)	.	.	8b-\J)	.	8b-\J)	.	8b-\J)	.	.	.	.	.	.	.	.	.	.	.	.	.	8b-\J	8b-\J)	.
(8F#X\L	.	.	(8f#X\L	.	(8f#X/L	.	(8f#X/L	.	.	.	.	.	.	.	.	.	.	.	.	.	(8f#X/L	(8f#X/L	.
8G\J)	.	.	8g\J)	.	8g/J)	.	8g/J)	.	.	.	.	.	.	.	.	.	.	.	.	.	8g/J)	8g/J)	.
4r	.	.	4r	.	4r	.	4r	.	.	.	.	.	.	.	.	.	.	.	.	.	4r	4r	.
!	!	!	!	!	!	!	!	!	!	!	!	!	!	!	!	!	!	!	!	!	!LO:LB:g=original	!	!
=51	=51	=51	=51	=51	=51	=51	=51	=51	=51	=51	=51	=51	=51	=51	=51	=51	=51	=51	=51	=51	=51	=51	=51
(16c#X\LL	.	1r	(16cc#X\LL	.	(16cc#X\LL	.	(16cc#X\LL	.	1r	1r	1r	1r	1r	1r	1r	1r	1r	.	1ryy	1r	(16cc#X\LL	(16cc#X\LL	1r
16d\)	.	.	16dd\)	.	16dd\)	.	16dd\)	.	.	.	.	.	.	.	.	.	.	.	.	.	16dd\)	16dd\)	.
(16c#\	.	.	(16cc#\	.	(16cc#\	.	(16cc#\	.	.	.	.	.	.	.	.	.	.	.	.	.	(16cc#\	(16cc#\	.
16d\JJ)	.	.	16dd\JJ)	.	16dd\JJ)	.	16dd\JJ)	.	.	.	.	.	.	.	.	.	.	.	.	.	16dd\JJ)	16dd\JJ)	.
(16A\LL	.	.	(16a\LL	.	(16a/LL	.	(16a\LL	.	.	.	.	.	.	.	.	.	.	.	.	.	(16a\LL	(16a\LL	.
16B-\	.	.	16b-\)	.	16b-/)	.	16b-\	.	.	.	.	.	.	.	.	.	.	.	.	.	16b-\)	16b-\)	.
16A\	.	.	(16a\	.	(16a/	.	16a\	.	.	.	.	.	.	.	.	.	.	.	.	.	(16a\	(16a\	.
16B-\JJ)	.	.	16b-\JJ)	.	16b-/JJ)	.	16b-\JJ)	.	.	.	.	.	.	.	.	.	.	.	.	.	16b-\JJ)	16b-\JJ)	.
!	!	!	!	!	!LO:LB:g=origina	!	!	!	!	!	!	!	!	!	!	!	!	!	!	!	!	!LO:LB:g=original	!
(16F#X\LL	.	.	(16f#X\LL	.	(16f#X/LL	.	(16f#X/LL	.	.	.	.	.	.	.	.	.	.	.	.	.	(16f#X/LL	(16f#X/LL	.
16G\	.	.	16g\)	.	16g/)	.	16g/)	.	.	.	.	.	.	.	.	.	.	.	.	.	16g/)	16g/)	.
16F#\	.	.	(16f#\	.	(16f#/	.	(16f#/	.	.	.	.	.	.	.	.	.	.	.	.	.	(16f#/	(16f#/	.
16G\JJ)	.	.	16g\JJ)	.	16g/JJ)	.	16g/JJ)	.	.	.	.	.	.	.	.	.	.	.	.	.	16g/JJ)	16g/JJ)	.
4r	.	.	4r	.	4r	.	4r	.	.	.	.	.	.	.	.	.	.	.	.	.	4r	4r	.
!LO:LB:g=original	!	!	!	!	!	!	!	!	!	!	!	!	!	!	!	!	!	!	!	!	!	!	!
=52	=52	=52	=52	=52	=52	=52	=52	=52	=52	=52	=52	=52	=52	=52	=52	=52	=52	=52	=52	=52	=52	=52	=52
!	!	!	!	!	!	!	!	!LO:DY:b:t=pia	!	!	!	!	!	!	!	!LO:TX:t=P:problem=mixed beam	!	!	!	!	!	!	!
4BB-/	p	1r	1r	.	4B-/	.	(8B-/L	p	1r	1r	1r	1r	1r	1r	1r	(8d\L	(8b-\L	.	1ryy	1r	(8d/L	(8b-\L	1r
!	!	!	!LO:LB:g=original	!	!	!	!	!	!	!	!	!	!	!	!	!	!	!	!	!	!	!	!
.	.	.	.	.	.	.	8d/)	.	.	.	.	.	.	.	.	8b-\)	8dd\)	.	.	.	8b-\)	8dd\	.
4BB-/	.	.	.	.	4d/	.	8f'/	.	.	.	.	.	.	.	.	8dd'\	8ff'\	.	.	.	8dd'\	8ff\)	.
.	.	.	.	.	.	.	8f'/J	.	.	.	.	.	.	.	.	8dd'\J	8ff'\J	.	.	.	8dd'\J	8ff\J	.
4BB-/	.	.	.	.	4d/	.	4f/	.	.	.	.	.	.	.	.	4dd\	4ff\	.	.	.	4dd\	4ff\	.
4BB-/	.	.	.	.	(16g/LL	.	(16b-/LL	.	.	.	.	.	.	.	.	4r	4r	.	.	.	(16gg\LL	(16bb-\LL	.
.	.	.	.	.	16f/)	.	16a/)	.	.	.	.	.	.	.	.	.	.	.	.	.	16ff\)	16aa\)	.
.	.	.	.	.	(16e-/	.	(16g/	.	.	.	.	.	.	.	.	.	.	.	.	.	(16ee-\	(16gg\	.
.	.	.	.	.	16d/JJ)	.	16f/JJ)	.	.	.	.	.	.	.	.	.	.	.	.	.	16dd\JJ)	16ff\JJ)	.
!	!	!	!	!	!	!	!LO:LB:g=original	!	!	!	!	!	!	!	!	!	!	!	!	!	!	!	!
=53	=53	=53	=53	=53	=53	=53	=53	=53	=53	=53	=53	=53	=53	=53	=53	=53	=53	=53	=53	=53	=53	=53	=53
4F\	.	1r	1r	.	(8e-/L	.	(8g/L	.	1r	1r	1r	1r	1r	1r	1r	(8ee-\L	(8gg\L	.	1ryy	1r	(8ee-\L	(8gg\L	1r
.	.	.	.	.	8c/)	.	8e-/)	.	.	.	.	.	.	.	.	8cc\)	8ee-\)	.	.	.	8cc\)	8ee-\)	.
4FF/	.	.	.	.	8B-'/	.	8d'/	.	.	.	.	.	.	.	.	8b-'\	8dd'\	.	.	.	8b-'\	8dd'\	.
.	.	.	.	.	8A'/J	.	8c'/J	.	.	.	.	.	.	.	.	8f'\J	8cc'\J	.	.	.	8a'\J	8cc'\J	.
4BB-/	.	.	.	.	4B-/	.	4B-/	.	.	.	.	.	.	.	.	4d/	4b-\	.	.	.	4b-\	4b-\	.
4r	.	.	.	.	4r	.	4r	.	.	.	.	.	.	.	.	4r	4r	.	.	.	4r	4r	.
=54:|!|:	=54:|!|:	=54:|!|:	=54:|!|:	=54:|!|:	=54:|!|:	=54:|!|:	=54:|!|:	=54:|!|:	=54:|!|:	=54:|!|:	=54:|!|:	=54:|!|:	=54:|!|:	=54:|!|:	=54:|!|:	=54:|!|:	=54:|!|:	=54:|!|:	=54:|!|:	=54:|!|:	=54:|!|:	=54:|!|:	=54:|!|:
!	!	!	!	!	!	!LO:DY:b:t=for	!	!LO:DY:b:t=for	!	!	!	!	!	!	!	!	!	!	!	!	!	!	!
4r	.	1r	4r	.	4r	f	(8cc\L	f	1r	1r	1r	1r	1r	1r	1r	1r	1r	.	1ryy	1r	1r	1r	1r
.	.	.	.	.	.	.	8bn\J)	.	.	.	.	.	.	.	.	.	.	.	.	.	.	.	.
!	!LO:DY:b:t=for	!	!	!LO:DY:b:t=for	!	!	!	!	!	!	!	!	!	!	!	!	!	!	!	!	!	!	!
4A-X'\	f	.	4f'\	f	2d/	.	2b\	.	.	.	.	.	.	.	.	.	.	.	.	.	.	.	.
4G'\	.	.	4e-X'\	.	.	.	.	.	.	.	.	.	.	.	.	.	.	.	.	.	.	.	.
4F'\	.	.	4d'\	.	4d/	.	4b\	.	.	.	.	.	.	.	.	.	.	.	.	.	.	.	.
=55	=55	=55	=55	=55	=55	=55	=55	=55	=55	=55	=55	=55	=55	=55	=55	=55	=55	=55	=55	=55	=55	=55	=55
!	!LO:DY:b:t=pia	!	!	!LO:DY:b:t=pia	!	!LO:DY:b:t=pia	!	!LO:DY:b:t=pia	!	!	!	!	!	!	!	!	!	!	!	!	!	!	!
4E-'\	p	1r	4c\	p	8e-/	p	8cc\	p	1r	1r	1r	1r	1r	1r	1r	1r	1r	.	1ryy	1r	1r	1r	1r
.	.	.	.	.	8r	.	8r	.	.	.	.	.	.	.	.	.	.	.	.	.	.	.	.
4D'\	.	.	4Bn\	.	8f/	.	8dd\	.	.	.	.	.	.	.	.	.	.	.	.	.	.	.	.
.	.	.	.	.	8r	.	8r	.	.	.	.	.	.	.	.	.	.	.	.	.	.	.	.
4C'/	.	.	4c\	.	4g/	.	4ee-\	.	.	.	.	.	.	.	.	.	.	.	.	.	.	.	.
4E-X'\	.	.	4c\	.	4r	.	4r	.	.	.	.	.	.	.	.	.	.	.	.	.	.	.	.
=56	=56	=56	=56	=56	=56	=56	=56	=56	=56	=56	=56	=56	=56	=56	=56	=56	=56	=56	=56	=56	=56	=56	=56
4r	.	1r	4r	.	4r	.	(8b-X\L	.	1r	1r	1r	1r	1r	1r	1r	1r	1r	.	1ryy	1r	1r	1r	1r
.	.	.	.	.	.	.	8a\J)	.	.	.	.	.	.	.	.	.	.	.	.	.	.	.	.
!	!LO:DY:b:t=for	!	!	!LO:DY:b:t=for	!	!LO:DY:b:t=for	!	!	!	!	!	!	!	!	!	!	!	!	!	!	!	!	!
4G'\	f	.	4e-'\	f	2c/	f	2a\	.	.	.	.	.	.	.	.	.	.	.	.	.	.	.	.
4F'\	.	.	4d'\	.	.	.	.	.	.	.	.	.	.	.	.	.	.	.	.	.	.	.	.
4E-'\	.	.	4c'\	.	4c/	.	4a\	.	.	.	.	.	.	.	.	.	.	.	.	.	.	.	.
!	!	!	!	!	!LO:LB:g=origina	!	!	!	!	!	!	!	!	!	!	!	!	!	!	!	!	!	!
=57	=57	=57	=57	=57	=57	=57	=57	=57	=57	=57	=57	=57	=57	=57	=57	=57	=57	=57	=57	=57	=57	=57	=57
!	!LO:DY:b:t=pia	!	!	!LO:DY:b:t=pia	!	!	!	!	!	!	!	!	!	!	!	!	!	!	!	!	!	!	!
4D'/	p	1r	4B-X/	p	8d/	.	8b-\	.	1r	1r	1r	1r	1r	1r	1r	1r	1r	.	1ryy	1r	1r	1r	1r
.	.	.	.	.	8r	.	8r	.	.	.	.	.	.	.	.	.	.	.	.	.	.	.	.
!	!	!	!	!	!	!LO:DY:b:t=pia	!	!	!	!	!	!	!	!	!	!	!	!	!	!	!	!	!
4C'/	.	.	4A/	.	8e-/	p	8cc\	.	.	.	.	.	.	.	.	.	.	.	.	.	.	.	.
.	.	.	.	.	8r	.	8r	.	.	.	.	.	.	.	.	.	.	.	.	.	.	.	.
4BB-'/	.	.	4B-/	.	4f/	.	4dd\	.	.	.	.	.	.	.	.	.	.	.	.	.	.	.	.
4D'/	.	.	4B-/	.	4r	.	4r	.	.	.	.	.	.	.	.	.	.	.	.	.	.	.	.
!LO:LB:g=original	!	!	!	!	!	!	!LO:LB:g=original	!	!	!	!	!	!	!	!	!	!	!	!	!	!	!	!
=58	=58	=58	=58	=58	=58	=58	=58	=58	=58	=58	=58	=58	=58	=58	=58	=58	=58	=58	=58	=58	=58	=58	=58
!	!LO:DY:b:t=for	!	!	!LO:DY:b:t=for	!	!LO:DY:b:t=for	!	!LO:DY:b:t=for	!	!	!	!	!	!	!	!	!	!	!	!	!	!	!
8G\L	f	1r	8g\L	f	8g/L	f	8g/L	f	1r	1r	1r	1r	1r	1r	1r	1r	1r	.	1ryy	1r	8g/L	8g/L	1r
16.G\L	.	.	16.g\L	.	16.g/L	.	16.g/L	.	.	.	.	.	.	.	.	.	.	.	.	.	16.g/L	16.g/L	.
32G\JJk	.	.	32g\JJk	.	32g/JJk	.	32g/JJk	.	.	.	.	.	.	.	.	.	.	.	.	.	32g/JJk	32g/JJk	.
8G\L	.	.	8g\L	.	8g/L	.	8g/L	.	.	.	.	.	.	.	.	.	.	.	.	.	8g/L	8g/L	.
8G\J	.	.	8g\J	.	8g/J	.	8g/J	.	.	.	.	.	.	.	.	.	.	.	.	.	8g/J	8g/J	.
8B-'\L	.	.	8b-'\L	.	8b-'/L	.	8b-'/L	.	.	.	.	.	.	.	.	.	.	.	.	.	(8b-/L	8b-/L	.
8G'\	.	.	8g'\	.	8g'/	.	8g'/	.	.	.	.	.	.	.	.	.	.	.	.	.	8g/)	8g/	.
8G'\	.	.	8g'\	.	8g'/	.	8g'/	.	.	.	.	.	.	.	.	.	.	.	.	.	8g'/	8g/	.
8G'\J	.	.	8g'\J	.	8g'/J	.	8g'/J	.	.	.	.	.	.	.	.	.	.	.	.	.	8g'/J	8g/J	.
!	!	!	!	!	!	!	!	!	!	!	!	!	!	!	!	!	!	!	!	!	!LO:LB:g=original	!	!
!	!	!	!LO:LB:g=original	!	!	!	!	!	!	!	!	!	!	!	!	!	!	!	!	!	!	!	!
=59	=59	=59	=59	=59	=59	=59	=59	=59	=59	=59	=59	=59	=59	=59	=59	=59	=59	=59	=59	=59	=59	=59	=59
(8c#X\L	.	1r	(8cc#X\L	.	(8cc#X\L	.	(8cc#X\L	.	1r	1r	1r	1r	1r	1r	1r	1r	1r	.	1ryy	1r	(8cc#X\L	(8cc#X\L	1r
8d\J)	.	.	8dd\J)	.	8dd\J)	.	8dd\J)	.	.	.	.	.	.	.	.	.	.	.	.	.	8dd\J)	8dd\)	.
(8A\L	.	.	(8a\L	.	(8a/L	.	(8a\L	.	.	.	.	.	.	.	.	.	.	.	.	.	(8a/L	(8a\	.
8B-\J)	.	.	8b-\J)	.	8b-/J)	.	8b-\J)	.	.	.	.	.	.	.	.	.	.	.	.	.	8b-/J)	8b-\J)	.
(8F#X\L	.	.	(8f#X\L	.	(8f#X/L	.	(8f#X/L	.	.	.	.	.	.	.	.	.	.	.	.	.	(8f#X/L	(8f#X/L	.
8G\J)	.	.	8g\J)	.	8g/J)	.	8g/J)	.	.	.	.	.	.	.	.	.	.	.	.	.	8g/J)	8g/J)	.
4r	.	.	4r	.	4r	.	4r	.	.	.	.	.	.	.	.	.	.	.	.	.	4r	4r	.
!	!	!	!	!	!	!	!	!	!	!	!	!	!	!	!	!	!	!	!	!	!	!LO:LB:g=original	!
=60	=60	=60	=60	=60	=60	=60	=60	=60	=60	=60	=60	=60	=60	=60	=60	=60	=60	=60	=60	=60	=60	=60	=60
(16c#X\LL	.	1r	(16cc#X\LL	.	(16cc#X\LL	.	(16cc#X\LL	.	1r	1r	1r	1r	1r	1r	1r	1r	1r	.	1ryy	1r	(16cc#X\LL	(16cc#X\LL	1r
16d\)	.	.	16dd\)	.	16dd\)	.	16dd\)	.	.	.	.	.	.	.	.	.	.	.	.	.	16dd\	16dd\)	.
(16c#\	.	.	(16cc#\	.	(16cc#\	.	(16cc#\	.	.	.	.	.	.	.	.	.	.	.	.	.	16cc#\	(16cc#\	.
16d\JJ)	.	.	16dd\JJ)	.	16dd\JJ)	.	16dd\JJ)	.	.	.	.	.	.	.	.	.	.	.	.	.	16dd\JJ)	16dd\JJ)	.
(16A\LL	.	.	(16a\LL	.	(16a\LL	.	(16a\LL	.	.	.	.	.	.	.	.	.	.	.	.	.	(16a\LL	(16a\LL	.
16B-\)	.	.	16b-\)	.	16b-\)	.	16b-\)	.	.	.	.	.	.	.	.	.	.	.	.	.	16b-\	16b-\	.
(16A\	.	.	(16a\	.	(16a\	.	(16a\	.	.	.	.	.	.	.	.	.	.	.	.	.	16a\	16a\	.
16B-\JJ)	.	.	16b-\JJ)	.	16b-\JJ)	.	16b-\JJ)	.	.	.	.	.	.	.	.	.	.	.	.	.	16b-\JJ)	16b-\JJ)	.
(16F#X\LL	.	.	(16f#X\LL	.	(16f#X/LL	.	(16f#X/LL	.	.	.	.	.	.	.	.	.	.	.	.	.	(16f#X/LL	(16f#X/LL	.
16G\)	.	.	16g\)	.	16g/)	.	16g/)	.	.	.	.	.	.	.	.	.	.	.	.	.	16g/)	16g/)	.
(16F#\	.	.	(16f#\	.	(16f#/	.	(16f#/	.	.	.	.	.	.	.	.	.	.	.	.	.	(16f#/	(16f#/	.
16G\JJ)	.	.	16g\JJ)	.	16g/JJ)	.	16g/JJ)	.	.	.	.	.	.	.	.	.	.	.	.	.	16g/JJ)	16g/JJ)	.
4r	.	.	4r	.	4r	.	4r	.	.	.	.	.	.	.	.	.	.	.	.	.	4r	4r	.
!LO:LB:g=original	!	!	!	!	!LO:LB:g=origina	!	!LO:LB:g=original	!	!	!	!	!	!	!	!	!	!	!	!	!	!	!	!
=61	=61	=61	=61	=61	=61	=61	=61	=61	=61	=61	=61	=61	=61	=61	=61	=61	=61	=61	=61	=61	=61	=61	=61
!	!LO:DY:b:t=pia	!	!	!LO:DY:b:t=pia	!	!LO:DY:b:t=pia	!	!LO:DY:b:t=pia	!	!	!	!	!	!	!	!	!	!	!	!	!	!	!
2G\	p	1r	2B-/	p	4.B-/	p	(8d/L	p	1r	1r	1r	1r	1r	1r	1r	1r	1r	.	1ryy	1r	(4.b-\	(8dd\L	1r
.	.	.	.	.	.	.	8g/J)	.	.	.	.	.	.	.	.	.	.	.	.	.	.	8gg\J)	.
.	.	.	.	.	.	.	(8g/L	.	.	.	.	.	.	.	.	.	.	.	.	.	.	(8gg\L	.
.	.	.	.	.	8d/	.	8b-/J)	.	.	.	.	.	.	.	.	.	.	.	.	.	8dd\)	8bb-\J)	.
4D\	.	.	4A/	.	(8B-/L	.	(8a/L	.	.	.	.	.	.	.	.	.	.	.	.	.	(8cc\L	(8aa\L	.
.	.	.	.	.	8A/J)	.	8f#X/J)	.	.	.	.	.	.	.	.	.	.	.	.	.	8a\J	8ff#X\J)	.
4G\	.	.	4B-/	.	4B-/	.	4g/	.	.	.	.	.	.	.	.	.	.	.	.	.	4b-\)	4gg\	.
=62	=62	=62	=62	=62	=62	=62	=62	=62	=62	=62	=62	=62	=62	=62	=62	=62	=62	=62	=62	=62	=62	=62	=62
!	!	!	!	!	!	!	!	!	!	!	!	!	!	!	!	!LO:TX:t=P:problem=wężowate segno	!LO:TX:t=P:problem=wężowate segno	!	!	!	!	!	!
4d\	.	1r	4d\	.	(8d/L	.	(8b-/L	.	1r	1r	1r	1r	1r	1r	1r	1r	1r	.	1ryy	1r	(8dd\L	(8bb-\L	1r
.	.	.	.	.	8c/)	.	8a/J)	.	.	.	.	.	.	.	.	.	.	.	.	.	8cc\)	8aa\)	.
4D/	.	.	4d\	.	(8B-/	.	(8g/L	.	.	.	.	.	.	.	.	.	.	.	.	.	(8b-\	(8gg\	.
.	.	.	.	.	8A/J)	.	8f#X/J)	.	.	.	.	.	.	.	.	.	.	.	.	.	8a\J)	8ff#X\J)	.
4G\	.	.	4B-/	.	4B-/	.	4g/	.	.	.	.	.	.	.	.	.	.	.	.	.	4b-\	4gg\	.
4r	.	.	4r	.	4r	.	4r	.	.	.	.	.	.	.	.	.	.	.	.	.	4r	4r	.
=63:|!	=63:|!	=63:|!	=63:|!	=63:|!	=63:|!	=63:|!	=63:|!	=63:|!	=63:|!	=63:|!	=63:|!	=63:|!	=63:|!	=63:|!	=63:|!	=63:|!	=63:|!	=63:|!	=63:|!	=63:|!	=63:|!	=63:|!	=63:|!
!	!	!	!	!	!	!	!	!	!	!	!	!	!	!	!	!	!LO:TX:t=P:problem=przepisuję tu takty 1-8	!	!	!	!	!	!
!	!	!	!	!	!	!	!	!	!	!	!	!	!	!	!	!LO:TX:t=P:problem=przepisuję tu takty 1-8	!LO:TX:a:t=dal Segno	!	!	!	!	!	!
!	!	!	!	!	!	!LO:DY:b:t=pia	!	!	!	!	!	!	!	!	!	!LO:TX:a:t=dal Segno	!LO:TX:t=P:problem=powtórka w tt. 63-70 oznaczona znakiem repetycji	!	!	!	!	!	!
1r	.	1r	1r	.	4B-/	p	4B-/	.	1r	1r	1r	1r	1r	1r	1r	4b-\	4dd\	.	1ryy	1r	4.b-'\	4.dd'\	1r
.	.	.	.	.	4r	.	4r	.	.	.	.	.	.	.	.	4r	4r	.	.	.	.	.	.
.	.	.	.	.	.	.	.	.	.	.	.	.	.	.	.	.	.	.	.	.	8cc'\	8ee-'\	.
!	!	!	!	!	!	!	!	!LO:DY:b:t=pia	!	!	!	!	!	!	!	!	!	!	!	!	!	!	!
.	.	.	.	.	4r	.	4r	p	.	.	.	.	.	.	.	4r	4r	.	.	.	4dd'\	4ff'\	.
.	.	.	.	.	4b-\	.	4b-\	.	.	.	.	.	.	.	.	4dd\	4ff\	.	.	.	4r	4r	.
!	!	!	!	!	!	!	!	!	!	!	!	!	!	!	!	!	!	!	!	!	!LO:LB:g=original	!	!
=64	=64	=64	=64	=64	=64	=64	=64	=64	=64	=64	=64	=64	=64	=64	=64	=64	=64	=64	=64	=64	=64	=64	=64
!	!	!	!	!	!	!	!	!	!	!	!	!	!	!	!	!	!	!	!	!	!LO:TX:t=P:4.\:problem	!	!
1r	.	1r	1r	.	4f/	.	4f/	.	1r	1r	1r	1r	1r	1r	1r	4f/	4cc\	.	1ryy	1r	4.a|\	4.cc|\	1r
.	.	.	.	.	4r	.	4r	.	.	.	.	.	.	.	.	4r	4r	.	.	.	.	.	.
.	.	.	.	.	.	.	.	.	.	.	.	.	.	.	.	.	.	.	.	.	8b-|\	8dd|\	.
!	!	!	!	!	!	!	!	!	!	!	!	!	!	!	!	!	!	!	!	!	!LO:TX:t=P:4\:problem	!	!
.	.	.	.	.	4r	.	4r	.	.	.	.	.	.	.	.	4r	4r	.	.	.	4cc'\	4ee-'\	.
.	.	.	.	.	4f/	.	4f/	.	.	.	.	.	.	.	.	4cc\	4ee-\	.	.	.	4r	4r	.
=65	=65	=65	=65	=65	=65	=65	=65	=65	=65	=65	=65	=65	=65	=65	=65	=65	=65	=65	=65	=65	=65	=65	=65
!	!	!	!	!	!	!	!	!	!	!	!	!	!	!	!	!	!LO:TX:t=P:4\:problem	!	!	!	!	!	!
1r	.	1r	1r	.	4B-/	.	4B-/	.	1r	1r	1r	1r	1r	1r	1r	4b-\	4dd\	.	1ryy	1r	(8cc\L	(8ee-\L	1r
.	.	.	.	.	.	.	.	.	.	.	.	.	.	.	.	.	.	.	.	.	8b-\	8dd\)	.
.	.	.	.	.	4r	.	4r	.	.	.	.	.	.	.	.	4r	4r	.	.	.	8a\)	(8cc\	.
.	.	.	.	.	.	.	.	.	.	.	.	.	.	.	.	.	.	.	.	.	8g\J	8b-\J)	.
!	!	!	!	!	!	!	!	!	!	!	!	!	!	!	!	!	!	!	!	!	!	!LO:LB:g=original	!
!	!	!	!	!	!	!	!	!	!	!	!	!	!	!	!	!	!	!	!	!	!LO:TX:t=P:problem=8\	!	!
.	.	.	.	.	4r	.	4r	.	.	.	.	.	.	.	.	2r	2r	.	.	.	(8f\L	(8a\L	.
!	!	!	!	!	!	!	!	!	!	!	!	!	!	!	!	!	!	!	!	!	!LO:TX:t=P:problem=8\	!	!
.	.	.	.	.	.	.	.	.	.	.	.	.	.	.	.	.	.	.	.	.	8a\	8cc\	.
!	!	!	!	!	!	!	!	!	!	!	!	!	!	!	!	!	!	!	!	!	!LO:TX:t=P:problem=8\	!	!
.	.	.	.	.	4B-/	.	4B-/	.	.	.	.	.	.	.	.	.	.	.	.	.	8cc\	8ee-\	.
!	!	!	!	!	!	!	!LO:LB:g=original	!	!	!	!	!	!	!	!	!	!	!	!	!	!LO:TX:t=P:problem=8\	!	!
.	.	.	.	.	.	.	.	.	.	.	.	.	.	.	.	.	.	.	.	.	8b-\J)	8dd\J)	.
=66	=66	=66	=66	=66	=66	=66	=66	=66	=66	=66	=66	=66	=66	=66	=66	=66	=66	=66	=66	=66	=66	=66	=66
!	!	!	!	!	!	!	!	!	!	!	!	!	!	!	!	!	!	!	!	!	!LO:TX:t=P:4\:problem	!	!
1r	.	1r	1r	.	4f/	.	4f/	.	1r	1r	1r	1r	1r	1r	1r	4f/	4cc\	.	1ryy	1r	4a\	4cc\	1r
!	!	!	!	!	!	!	!	!	!	!	!	!	!	!	!	!	!	!	!	!	!LO:TX:t=P:4\:problem	!	!
.	.	.	.	.	4f/	.	4f/	.	.	.	.	.	.	.	.	4f/	4cc\	.	.	.	4a\	4cc\	.
!	!	!	!	!	!	!	!	!	!	!	!	!	!	!	!	!	!	!	!	!	!LO:TX:t=P:4\:problem	!	!
.	.	.	.	.	8f'/L	.	8f'/L	.	.	.	.	.	.	.	.	4f/	4cc\	.	.	.	4a\	4cc\	.
.	.	.	.	.	8e-'/	.	8e-'/	.	.	.	.	.	.	.	.	.	.	.	.	.	.	.	.
.	.	.	.	.	8d'/	.	8d'/	.	.	.	.	.	.	.	.	4r	4r	.	.	.	4r	4r	.
!	!	!	!	!	!	!	!	!	!	!	!	!	!	!	!	!LO:LB:g=original	!	!	!	!	!	!	!
.	.	.	.	.	8c'/J	.	8c'/J	.	.	.	.	.	.	.	.	.	.	.	.	.	.	.	.
=67	=67	=67	=67	=67	=67	=67	=67	=67	=67	=67	=67	=67	=67	=67	=67	=67	=67	=67	=67	=67	=67	=67	=67
1r	.	1r	1r	.	4B-/	.	4B-/	.	1r	1r	1r	1r	1r	1r	1r	4b-\	4dd\	.	1ryy	1r	4.b-'\	4.dd|\	1r
.	.	.	.	.	4r	.	4r	.	.	.	.	.	.	.	.	4r	4r	.	.	.	.	.	.
.	.	.	.	.	.	.	.	.	.	.	.	.	.	.	.	.	.	.	.	.	8cc'\	8ee-|\	.
.	.	.	.	.	4r	.	4r	.	.	.	.	.	.	.	.	4r	4r	.	.	.	4dd'\	4ff'\	.
.	.	.	.	.	4b-\	.	4b-\	.	.	.	.	.	.	.	.	4dd\	4ff\	.	.	.	4r	4r	.
!	!	!	!	!	!LO:LB:g=origina	!	!	!	!	!	!	!	!	!	!	!	!LO:LB:g=original	!	!	!	!	!	!
=68	=68	=68	=68	=68	=68	=68	=68	=68	=68	=68	=68	=68	=68	=68	=68	=68	=68	=68	=68	=68	=68	=68	=68
!	!	!	!	!	!	!	!	!	!	!	!	!	!	!	!	!	!	!	!	!	!LO:TX:t=P:4.\:problem	!	!
1r	.	1r	1r	.	4f/	.	4f/	.	1r	1r	1r	1r	1r	1r	1r	4f/	4cc\	.	1ryy	1r	4.a'\	4.cc|\	1r
.	.	.	.	.	4r	.	4r	.	.	.	.	.	.	.	.	4r	4r	.	.	.	.	.	.
!	!	!	!	!	!	!	!	!	!	!	!	!	!	!	!	!	!	!	!	!	!LO:TX:t=P:problem=8\	!	!
.	.	.	.	.	.	.	.	.	.	.	.	.	.	.	.	.	.	.	.	.	8b-'\	8dd|\	.
.	.	.	.	.	4r	.	4r	.	.	.	.	.	.	.	.	4r	4r	.	.	.	4cc'\	4ee-'\	.
.	.	.	.	.	4f/	.	4f/	.	.	.	.	.	.	.	.	4cc\	4ee-\	.	.	.	4r	4r	.
=69	=69	=69	=69	=69	=69	=69	=69	=69	=69	=69	=69	=69	=69	=69	=69	=69	=69	=69	=69	=69	=69	=69	=69
1r	.	1r	1r	.	4b-\	.	4b-\	.	1r	1r	1r	1r	1r	1r	1r	2b-\	2dd\	.	1ryy	1r	(8g/L	(8ee-\L	1r
.	.	.	.	.	.	.	.	.	.	.	.	.	.	.	.	.	.	.	.	.	8f/)	8dd\)	.
.	.	.	.	.	4b-\	.	4b-\	.	.	.	.	.	.	.	.	.	.	.	.	.	(8e-/	(8cc\	.
.	.	.	.	.	.	.	.	.	.	.	.	.	.	.	.	.	.	.	.	.	8d/J)	8b-\J)	.
.	.	.	.	.	4f/	.	4f/	.	.	.	.	.	.	.	.	2fT/	2ccT\	.	.	.	(8f/L	(8dd\L	.
.	.	.	.	.	.	.	.	.	.	.	.	.	.	.	.	.	.	.	.	.	8e-/)	8cc\)	.
.	.	.	.	.	4f/	.	4f/	.	.	.	.	.	.	.	.	.	.	.	.	.	(8d/	(8b-\	.
.	.	.	.	.	.	.	.	.	.	.	.	.	.	.	.	.	.	.	.	.	8c/J)	8a\J)	.
=70	=70	=70	=70	=70	=70	=70	=70	=70	=70	=70	=70	=70	=70	=70	=70	=70	=70	=70	=70	=70	=70	=70	=70
1r	.	1r	1r	.	4B-/	.	4B-/	.	1r	1r	1r	1r	1r	1r	1r	4d/	4b-\	.	1ryy	1r	4d/	4b-\	1r
!	!	!	!LO:LB:g=original	!	!	!	!	!	!	!	!	!	!	!	!	!	!	!	!	!	!	!	!
.	.	.	.	.	4b-\	.	4b-\	.	.	.	.	.	.	.	.	4d/	4b-\	.	.	.	4d/	4b-\	.
.	.	.	.	.	4B-/	.	4B-/	.	.	.	.	.	.	.	.	4d/	4b-\	.	.	.	4d/	4b-\	.
!	!	!	!	!	!	!	!	!	!	!	!	!	!	!	!	!LO:TX:a:t=finis	!LO:TX:a:t=finis	!	!	!	!	!	!
.	.	.	.	.	4r	.	4r	.	.	.	.	.	.	.	.	4r;	4r;	.	.	.	4r	4r	.
=71	=71	=71	=71	=71	=71	=71	=71	=71	=71	=71	=71	=71	=71	=71	=71	=71	=71	=71	=71	=71	=71	=71	=71
!	!	!	!	!	!	!	!	!	!	!	!	!	!	!	!	!LO:TX:t=P:problem=powtórka w tt. 71-78 oznaczona znakiem repetycji (repetycja wynikająca z kresek w ramach segno)	!LO:TX:t=P:problem=przepisuję tu takty 1-8	!	!	!	!	!	!
!	!LO:DY:b:t=for	!	!	!LO:DY:b:t=for	!LO:TX:a:t=|	!	!LO:TX:a:t=|	!LO:DY:b:t=for	!	!	!	!	!	!	!	!LO:TX:t=P:problem=przepisuję tu takty 1-8	!LO:TX:t=P:problem=powtórka w tt. 71-78 oznaczona znakiem repetycji (repetycja wynikająca z kresek w ramach segno)	!	!	!	!LO:TX:t=P:problem=powtórka w tt. 71-78 oznaczona znakiem repetycji	!LO:TX:t=P:problem=powtórka w tt. 71-78 oznaczona znakiem repetycji	!
4BB-/	f	1r	4B-/	f	4.b-\	.	4.dd\	f	1r	1r	1r	1r	1r	1r	1r	4b-\	4dd\	.	1ryy	1r	4.b-'\	4.dd'\	1r
4r	.	.	4r	.	.	.	.	.	.	.	.	.	.	.	.	4r	4r	.	.	.	.	.	.
!	!	!	!	!	!LO:TX:a:t=|	!LO:DY:b:t=for	!LO:TX:a:t=|	!	!	!	!	!	!	!	!	!	!	!	!	!	!	!	!
.	.	.	.	.	8cc\	f	8ee-\	.	.	.	.	.	.	.	.	.	.	.	.	.	8cc'\	8ee-'\	.
!	!	!	!	!	!LO:TX:a:t=|	!	!LO:TX:a:t=|	!	!	!	!	!	!	!	!	!	!	!	!	!	!	!	!
4r	.	.	4r	.	4dd\	.	4ff\	.	.	.	.	.	.	.	.	4r	4r	.	.	.	4dd'\	4ff'\	.
4B-\	.	.	4B-/	.	4r	.	4r	.	.	.	.	.	.	.	.	4dd\	4ff\	.	.	.	4r	4r	.
!	!	!	!	!	!	!	!	!	!	!	!	!	!	!	!	!	!	!	!	!	!LO:LB:g=original	!	!
!	!	!	!	!	!	!	!LO:LB:g=original	!	!	!	!	!	!	!	!	!	!	!	!	!	!	!	!
=72	=72	=72	=72	=72	=72	=72	=72	=72	=72	=72	=72	=72	=72	=72	=72	=72	=72	=72	=72	=72	=72	=72	=72
!	!	!	!	!	!	!	!	!	!	!	!	!	!	!	!	!	!	!	!	!	!LO:TX:t=P:4.\:problem	!	!
4F\	.	1r	4F/	.	4.a'\	.	4.cc'\	.	1r	1r	1r	1r	1r	1r	1r	4f/	4cc\	.	1ryy	1r	4.a|\	4.cc|\	1r
4r	.	.	4r	.	.	.	.	.	.	.	.	.	.	.	.	4r	4r	.	.	.	.	.	.
.	.	.	.	.	8b-'\	.	8dd'\	.	.	.	.	.	.	.	.	.	.	.	.	.	8b-|\	8dd|\	.
!	!	!	!	!	!	!	!	!	!	!	!	!	!	!	!	!	!	!	!	!	!LO:TX:t=P:4\:problem	!	!
4r	.	.	4r	.	4cc'\	.	4ee-'\	.	.	.	.	.	.	.	.	4r	4r	.	.	.	4cc'\	4ee-'\	.
4F\	.	.	4F/	.	4r	.	4r	.	.	.	.	.	.	.	.	4cc\	4ee-\	.	.	.	4r	4r	.
=73	=73	=73	=73	=73	=73	=73	=73	=73	=73	=73	=73	=73	=73	=73	=73	=73	=73	=73	=73	=73	=73	=73	=73
!	!	!	!	!	!	!	!	!	!	!	!	!	!	!	!	!	!LO:TX:t=P:4\:problem	!	!	!	!	!	!
4BB-/	.	1r	4B-/	.	(8cc\L	.	(8ee-\L	.	1r	1r	1r	1r	1r	1r	1r	4b-\	4dd\	.	1ryy	1r	(8cc\L	(8ee-\L	1r
.	.	.	.	.	8b-\	.	8dd\)	.	.	.	.	.	.	.	.	.	.	.	.	.	8b-\	8dd\)	.
4r	.	.	4r	.	8a\	.	(8cc\	.	.	.	.	.	.	.	.	4r	4r	.	.	.	8a\)	(8cc\	.
.	.	.	.	.	8g\J)	.	8b-\J)	.	.	.	.	.	.	.	.	.	.	.	.	.	8g\J	8b-\J)	.
!	!	!	!	!	!	!	!	!	!	!	!	!	!	!	!	!	!	!	!	!	!	!LO:LB:g=original	!
!	!	!	!	!	!	!	!	!	!	!	!	!	!	!	!	!	!	!	!	!	!LO:TX:t=P:problem=8\	!	!
4r	.	.	4r	.	8f/L	.	(8a\L	.	.	.	.	.	.	.	.	2r	2r	.	.	.	(8f\L	(8a\L	.
!	!	!	!	!	!	!	!	!	!	!	!	!	!	!	!	!	!	!	!	!	!LO:TX:t=P:problem=8\	!	!
.	.	.	.	.	8a/	.	8cc\)	.	.	.	.	.	.	.	.	.	.	.	.	.	8a\	8cc\	.
!	!	!	!	!	!	!	!	!	!	!	!	!	!	!	!	!	!	!	!	!	!LO:TX:t=P:problem=8\	!	!
4BB-/	.	.	4B-/	.	8cc/	.	(8ee-\	.	.	.	.	.	.	.	.	.	.	.	.	.	8cc\	8ee-\	.
!	!	!	!	!	!	!	!	!	!	!	!	!	!	!	!	!	!	!	!	!	!LO:TX:t=P:problem=8\	!	!
.	.	.	.	.	8b-/J	.	8dd\J)	.	.	.	.	.	.	.	.	.	.	.	.	.	8b-\J)	8dd\J)	.
=74	=74	=74	=74	=74	=74	=74	=74	=74	=74	=74	=74	=74	=74	=74	=74	=74	=74	=74	=74	=74	=74	=74	=74
!	!	!	!	!	!	!	!	!	!	!	!	!	!	!	!	!	!	!	!	!	!LO:TX:t=P:4\:problem	!	!
4F\	.	1r	4f\	.	4a/	.	4cc\	.	1r	1r	1r	1r	1r	1r	1r	4f/	4cc\	.	1ryy	1r	4a\	4cc\	1r
!	!	!	!	!	!	!	!	!	!	!	!	!	!	!	!	!	!	!	!	!	!LO:TX:t=P:4\:problem	!	!
4FF/	.	.	4F/	.	4a/	.	4cc\	.	.	.	.	.	.	.	.	4f/	4cc\	.	.	.	4a\	4cc\	.
!LO:TX:a:t=|	!	!	!LO:TX:a:t=|	!	!	!	!	!	!	!	!	!	!	!	!	!	!	!	!	!	!LO:TX:t=P:4\:problem	!	!
8F\L	.	.	8f\L	.	4a/	.	4cc\	.	.	.	.	.	.	.	.	4f/	4cc\	.	.	.	4a\	4cc\	.
!LO:TX:a:t=|	!	!	!LO:TX:a:t=|	!	!	!	!	!	!	!	!	!	!	!	!	!	!	!	!	!	!	!	!
8E-\	.	.	8e-\	.	.	.	.	.	.	.	.	.	.	.	.	.	.	.	.	.	.	.	.
!LO:TX:a:t=|	!	!	!LO:TX:a:t=|	!	!	!	!	!	!	!	!	!	!	!	!	!	!	!	!	!	!	!	!
8D\	.	.	8d\	.	4r	.	4r	.	.	.	.	.	.	.	.	4r	4r	.	.	.	4r	4r	.
!	!	!	!	!	!	!	!	!	!	!	!	!	!	!	!	!LO:LB:g=original	!	!	!	!	!	!	!
!LO:TX:a:t=|	!	!	!LO:TX:a:t=|	!	!LO:LB:g=origina	!	!	!	!	!	!	!	!	!	!	!	!	!	!	!	!	!	!
8C\J	.	.	8c\J	.	.	.	.	.	.	.	.	.	.	.	.	.	.	.	.	.	.	.	.
!LO:LB:g=original	!	!	!	!	!	!	!	!	!	!	!	!	!	!	!	!	!	!	!	!	!	!	!
=75	=75	=75	=75	=75	=75	=75	=75	=75	=75	=75	=75	=75	=75	=75	=75	=75	=75	=75	=75	=75	=75	=75	=75
4BB-/	.	1r	4B-/	.	4.b-'\	.	4.dd'\	.	1r	1r	1r	1r	1r	1r	1r	4b-\	4dd\	.	1ryy	1r	4.b-'\	4.dd|\	1r
4r	.	.	4r	.	.	.	.	.	.	.	.	.	.	.	.	4r	4r	.	.	.	.	.	.
.	.	.	.	.	8cc'\	.	8ee-'\	.	.	.	.	.	.	.	.	.	.	.	.	.	8cc'\	8ee-|\	.
4r	.	.	4r	.	4dd'\	.	4ff'\	.	.	.	.	.	.	.	.	4r	4r	.	.	.	4dd'\	4ff'\	.
4B-\	.	.	4B-/	.	4r	.	4r	.	.	.	.	.	.	.	.	4dd\	4ff\	.	.	.	4r	4r	.
!	!	!	!	!	!	!	!	!	!	!	!	!	!	!	!	!	!LO:LB:g=original	!	!	!	!	!	!
=76	=76	=76	=76	=76	=76	=76	=76	=76	=76	=76	=76	=76	=76	=76	=76	=76	=76	=76	=76	=76	=76	=76	=76
!	!	!	!	!	!	!	!LO:TX:a:t=|	!	!	!	!	!	!	!	!	!	!	!	!	!	!LO:TX:t=P:4.\:problem	!	!
4F\	.	1r	4F/	.	4.a'\	.	4.cc\	.	1r	1r	1r	1r	1r	1r	1r	4f/	4cc\	.	1ryy	1r	4.a'\	4.cc|\	1r
4r	.	.	4r	.	.	.	.	.	.	.	.	.	.	.	.	4r	4r	.	.	.	.	.	.
!	!	!	!	!	!	!	!LO:TX:a:t=|	!	!	!	!	!	!	!	!	!	!	!	!	!	!LO:TX:t=P:problem=8\	!	!
.	.	.	.	.	8b-'\	.	8dd\	.	.	.	.	.	.	.	.	.	.	.	.	.	8b-'\	8dd|\	.
!	!	!	!	!	!	!	!LO:TX:a:t=|	!	!	!	!	!	!	!	!	!	!	!	!	!	!	!	!
4r	.	.	4r	.	4cc'\	.	4ee-\	.	.	.	.	.	.	.	.	4r	4r	.	.	.	4cc'\	4ee-'\	.
4F\	.	.	4F/	.	4r	.	4r	.	.	.	.	.	.	.	.	4cc\	4ee-\	.	.	.	4r	4r	.
!	!	!	!	!	!	!	!LO:LB:g=original	!	!	!	!	!	!	!	!	!	!	!	!	!	!	!	!
=77	=77	=77	=77	=77	=77	=77	=77	=77	=77	=77	=77	=77	=77	=77	=77	=77	=77	=77	=77	=77	=77	=77	=77
4B-\	.	1r	4B-/	.	(8g/L	.	(8ee-\L	.	1r	1r	1r	1r	1r	1r	1r	2b-\	2dd\	.	1ryy	1r	(8g/L	(8ee-\L	1r
.	.	.	.	.	8f/)	.	8dd\)	.	.	.	.	.	.	.	.	.	.	.	.	.	8f/)	8dd\)	.
4BB-/	.	.	4B-/	.	8e-/	.	(8cc\	.	.	.	.	.	.	.	.	.	.	.	.	.	(8e-/	(8cc\	.
.	.	.	.	.	8d/J	.	8b-\J)	.	.	.	.	.	.	.	.	.	.	.	.	.	8d/J)	8b-\J)	.
4F\	.	.	4f\	.	(8f/L	.	(8dd\L	.	.	.	.	.	.	.	.	2fT/	2ccT\	.	.	.	(8f/L	(8dd\L	.
.	.	.	.	.	8e-/)	.	8cc\)	.	.	.	.	.	.	.	.	.	.	.	.	.	8e-/)	8cc\)	.
4FF/	.	.	4F/	.	(8d/	.	(8b-\	.	.	.	.	.	.	.	.	.	.	.	.	.	(8d/	(8b-\	.
!	!	!	!LO:LB:g=original	!	!	!	!	!	!	!	!	!	!	!	!	!	!	!	!	!	!	!	!
.	.	.	.	.	8c/J)	.	8a\J)	.	.	.	.	.	.	.	.	.	.	.	.	.	8c/J)	8a\J)	.
=78	=78	=78	=78	=78	=78	=78	=78	=78	=78	=78	=78	=78	=78	=78	=78	=78	=78	=78	=78	=78	=78	=78	=78
4BB-/	.	1r	4B-/	.	4d/	.	4b-\	.	1r	1r	1r	1r	1r	1r	1r	4d/	4b-\	.	1ryy	1r	4d/	4b-\	1r
4B-\	.	.	4B-/	.	4d/	.	4b-\	.	.	.	.	.	.	.	.	4d/	4b-\	.	.	.	4d/	4b-\	.
4BB-/	.	.	4B-/	.	4d/	.	4b-\	.	.	.	.	.	.	.	.	4d/	4b-\	.	.	.	4d/	4b-\	.
!	!	!	!	!	!	!	!	!	!	!	!	!	!	!	!	!LO:TX:a:t=finis	!LO:TX:a:t=finis	!	!	!	!	!	!
4r	.	.	4r	.	4r	.	4r	.	.	.	.	.	.	.	.	4r;	4r;	.	.	.	4r	4r	.
!LO:LB:g=original	!	!	!	!	!	!	!	!	!	!	!	!	!	!	!	!LO:LB:g=original	!	!	!	!	!	!	!
=79!|:	=79!|:	=79!|:	=79!|:	=79!|:	=79!|:	=79!|:	=79!|:	=79!|:	=79!|:	=79!|:	=79!|:	=79!|:	=79!|:	=79!|:	=79!|:	=79!|:	=79!|:	=79!|:	=79!|:	=79!|:	=79!|:	=79!|:	=79!|:
!	!LO:DY:b:t=pia	!	!	!LO:DY:b:t=pia	!	!LO:DY:b:t=pia	!	!LO:DY:b:t=pia	!	!	!	!	!	!	!	!	!	!	!	!	!	!	!
4BB-/	p	1r	4B-/	p	4.B-'/	p	4.d/	p	1r	1r	1r	1r	1r	1r	1r	4.b-\	4.dd\	.	1ryy	1r	4.b-'\	4.dd'\	1r
4BB-/	.	.	4B-/	.	.	.	.	.	.	.	.	.	.	.	.	.	.	.	.	.	.	.	.
.	.	.	.	.	8c'/	.	8e-/	.	.	.	.	.	.	.	.	8cc\	8ee-\	.	.	.	8cc'\	8ee-|\	.
4BB-/	.	.	4B-/	.	4d'/	.	4f/	.	.	.	.	.	.	.	.	4dd'\	4ff\	.	.	.	4dd'\	4ff'\	.
4BB-/	.	.	4B-/	.	4d'/	.	4f/	.	.	.	.	.	.	.	.	4dd'\	4ff\	.	.	.	4dd'\	4ff'\	.
!	!	!	!	!	!	!	!	!	!	!	!	!	!	!	!	!	!	!	!	!	!LO:LB:g=original	!	!
=80	=80	=80	=80	=80	=80	=80	=80	=80	=80	=80	=80	=80	=80	=80	=80	=80	=80	=80	=80	=80	=80	=80	=80
4BB-/	.	1r	4B-/	.	2d/	.	2f/	.	1r	1r	1r	1r	1r	1r	1r	2dd\	2ff\	.	1ryy	1r	2dd\	2ff\	1r
4BB-/	.	.	4B-/	.	.	.	.	.	.	.	.	.	.	.	.	.	.	.	.	.	.	.	.
4BB-/	.	.	4B-/	.	(8e-/L	.	(8g/L	.	.	.	.	.	.	.	.	2r	2r	.	.	.	(8ee-\L	(8gg\L	.
.	.	.	.	.	8d/	.	8f/)	.	.	.	.	.	.	.	.	.	.	.	.	.	8dd\)	8ff\)	.
4BB-/	.	.	4B-/	.	8c/	.	(8e-/	.	.	.	.	.	.	.	.	.	.	.	.	.	(8cc\	8ee-\	.
.	.	.	.	.	8B-/J)	.	8d/J)	.	.	.	.	.	.	.	.	.	.	.	.	.	8b-\J)	8dd\J	.
!	!	!	!	!	!	!	!	!	!	!	!	!	!	!	!	!	!	!	!	!	!	!LO:LB:g=original	!
=81	=81	=81	=81	=81	=81	=81	=81	=81	=81	=81	=81	=81	=81	=81	=81	=81	=81	=81	=81	=81	=81	=81	=81
4FF/	.	1r	4A/	.	4A/	.	4c/	.	1r	1r	1r	1r	1r	1r	1r	4f/	4cc\	.	1ryy	1r	4a\	4cc\	1r
4FF/	.	.	4A/	.	4A/	.	4c/	.	.	.	.	.	.	.	.	4f/	4cc\	.	.	.	4a\	4cc\	.
4BB-/	.	.	4B-/	.	4B-/	.	4d/	.	.	.	.	.	.	.	.	4b-\	4dd\	.	.	.	4b-\	4dd\	.
4BB-/	.	.	4B-/	.	4B-/	.	4d/	.	.	.	.	.	.	.	.	4b-\	4dd\	.	.	.	4b-\	4dd\	.
!	!	!	!	!	!LO:LB:g=origina	!	!LO:LB:g=original	!	!	!	!	!	!	!	!	!	!	!	!	!	!	!	!
=82	=82	=82	=82	=82	=82	=82	=82	=82	=82	=82	=82	=82	=82	=82	=82	=82	=82	=82	=82	=82	=82	=82	=82
4F\	.	1r	4A/	.	2c/	.	2e-/	.	1r	1r	1r	1r	1r	1r	1r	2cc\	2ee-\	.	1ryy	1r	2cc\	2ee-\	1r
4FF/	.	.	4F/	.	.	.	.	.	.	.	.	.	.	.	.	.	.	.	.	.	.	.	.
4AA/	.	.	4A/	.	2r	.	2r	.	.	.	.	.	.	.	.	2r	2r	.	.	.	2r	2r	.
4C/	.	.	4c/	.	.	.	.	.	.	.	.	.	.	.	.	.	.	.	.	.	.	.	.
=83	=83	=83	=83	=83	=83	=83	=83	=83	=83	=83	=83	=83	=83	=83	=83	=83	=83	=83	=83	=83	=83	=83	=83
4F\	.	1r	4f\	.	4.A/	.	4.c/	.	1r	1r	1r	1r	1r	1r	1r	4.f'/	4.cc'\	.	1ryy	1r	4.a\	4.cc|\	1r
4F\	.	.	4f\	.	.	.	.	.	.	.	.	.	.	.	.	.	.	.	.	.	.	.	.
!	!	!	!	!	!	!	!	!	!	!	!	!	!	!	!	!	!	!	!	!	!	!LO:TX:a:t=|	!
.	.	.	.	.	8B-/	.	8d/	.	.	.	.	.	.	.	.	8b-'\	8dd'\	.	.	.	8b-\	8dd\	.
4FF/	.	.	4F/	.	4c/	.	4e-/	.	.	.	.	.	.	.	.	4cc\	4ee-\	.	.	.	4cc\	4ee-\	.
4FF/	.	.	4F/	.	4c/	.	4e-/	.	.	.	.	.	.	.	.	4cc\	4ee-\	.	.	.	4cc\	4ee-\	.
!	!	!	!	!	!	!	!	!	!	!	!	!	!	!	!	!LO:LB:g=original	!	!	!	!	!	!	!
=84	=84	=84	=84	=84	=84	=84	=84	=84	=84	=84	=84	=84	=84	=84	=84	=84	=84	=84	=84	=84	=84	=84	=84
4FF/	.	1r	4F/	.	2c/	.	2e-/	.	1r	1r	1r	1r	1r	1r	1r	2cc\	2ee-\	.	1ryy	1r	2cc\	2ee-\	1r
4FF/	.	.	4F/	.	.	.	.	.	.	.	.	.	.	.	.	.	.	.	.	.	.	.	.
4FF/	.	.	4F/	.	(8d/L	.	(8f/L	.	.	.	.	.	.	.	.	2r	2r	.	.	.	(8dd\L	(8ff\L	.
!	!	!	!	!	!	!	!	!	!	!	!	!	!	!	!	!	!LO:LB:g=original	!	!	!	!	!	!
.	.	.	.	.	8c/)	.	8e-/)	.	.	.	.	.	.	.	.	.	.	.	.	.	8cc\)	8ee-\)	.
4FF/	.	.	4F/	.	(8B-/	.	(8d/	.	.	.	.	.	.	.	.	.	.	.	.	.	(8b-\	(8dd\	.
!	!	!	!LO:LB:g=original	!	!	!	!	!	!	!	!	!	!	!	!	!	!	!	!	!	!	!	!
.	.	.	.	.	8A/J)	.	8c/J)	.	.	.	.	.	.	.	.	.	.	.	.	.	8a\J)	8cc\J)	.
=85	=85	=85	=85	=85	=85	=85	=85	=85	=85	=85	=85	=85	=85	=85	=85	=85	=85	=85	=85	=85	=85	=85	=85
4BB-/	.	1r	4B-/	.	4B-/	.	4B-/	.	1r	1r	1r	1r	1r	1r	1r	4d/	4b-\	.	1ryy	1r	4d/	4b-\	1r
4BB-/	.	.	4B-/	.	4B-/	.	4B-/	.	.	.	.	.	.	.	.	4d/	4b-\	.	.	.	4d/	4b-\	.
4FF/	.	.	4A/	.	4A/	.	4c/	.	.	.	.	.	.	.	.	4f/	4cc\	.	.	.	4a/	4cc\	.
4FF/	.	.	4A/	.	4A/	.	4c/	.	.	.	.	.	.	.	.	4f/	4cc\	.	.	.	4a/	4cc\	.
!LO:LB:g=original	!	!	!	!	!	!	!	!	!	!	!	!	!	!	!	!	!	!	!	!	!	!	!
=86	=86	=86	=86	=86	=86	=86	=86	=86	=86	=86	=86	=86	=86	=86	=86	=86	=86	=86	=86	=86	=86	=86	=86
4BB-/	.	1r	4B-\	.	2B-/	.	2d/	.	1r	1r	1r	1r	1r	1r	1r	2b-\	2dd\	.	1ryy	1r	2b-\	2dd\	1r
4BB-/	.	.	4B-\	.	.	.	.	.	.	.	.	.	.	.	.	.	.	.	.	.	.	.	.
4D\	.	.	4d\	.	2r	.	2r	.	.	.	.	.	.	.	.	2r	2r	.	.	.	2r	2r	.
4F\	.	.	4f\	.	.	.	.	.	.	.	.	.	.	.	.	.	.	.	.	.	.	.	.
=87	=87	=87	=87	=87	=87	=87	=87	=87	=87	=87	=87	=87	=87	=87	=87	=87	=87	=87	=87	=87	=87	=87	=87
4BB-/	.	1r	4B-/	.	(4.B-/	.	(4.d/	.	1r	1r	1r	1r	1r	1r	1r	1r	1r	.	1ryy	1r	(4.b-\	(4.dd\	1r
4r	.	.	4r	.	.	.	.	.	.	.	.	.	.	.	.	.	.	.	.	.	.	.	.
.	.	.	.	.	8A/)	.	8c/)	.	.	.	.	.	.	.	.	.	.	.	.	.	8a\)	8cc\)	.
4FF/	.	.	4F/	.	(4.c/	.	4.e-/	.	.	.	.	.	.	.	.	.	.	.	.	.	(4.cc\	(4.ee-\	.
4r	.	.	4r	.	.	.	.	.	.	.	.	.	.	.	.	.	.	.	.	.	.	.	.
.	.	.	.	.	8B-/)	.	8d/	.	.	.	.	.	.	.	.	.	.	.	.	.	8b-\)	8dd\)	.
=88	=88	=88	=88	=88	=88	=88	=88	=88	=88	=88	=88	=88	=88	=88	=88	=88	=88	=88	=88	=88	=88	=88	=88
4BB-/	.	1r	4B-/	.	(4.d/	.	(4.f/	.	1r	1r	1r	1r	1r	1r	1r	1r	1r	.	1ryy	1r	(4.dd\	(4.ff\	1r
4BB-/	.	.	4B-/	.	.	.	.	.	.	.	.	.	.	.	.	.	.	.	.	.	.	.	.
.	.	.	.	.	16e-/LL)	.	16g/LL)	.	.	.	.	.	.	.	.	.	.	.	.	.	16ee-\LL)	16gg\LL)	.
.	.	.	.	.	16d/JJ	.	16f/JJ	.	.	.	.	.	.	.	.	.	.	.	.	.	16dd\JJ	16ff\JJ	.
!	!	!	!	!	!	!	!LO:LB:g=original	!	!	!	!	!	!	!	!	!	!	!	!	!	!	!LO:TX:a:t=|	!
4BB-/	.	.	4B-/	.	4c'/	.	4e-'/	.	.	.	.	.	.	.	.	.	.	.	.	.	4cc'\	4ee-\	.
!	!	!	!	!	!	!	!	!	!	!	!	!	!	!	!	!	!	!	!	!	!	!LO:TX:a:t=|	!
4BB-/	.	.	4B-/	.	4B-'/	.	4d'/	.	.	.	.	.	.	.	.	.	.	.	.	.	4b-'\	4dd\	.
!	!	!	!	!	!	!	!	!	!	!	!	!	!	!	!	!	!	!	!	!	!LO:LB:g=original	!LO:LB:g=original	!
=89	=89	=89	=89	=89	=89	=89	=89	=89	=89	=89	=89	=89	=89	=89	=89	=89	=89	=89	=89	=89	=89	=89	=89
4r	.	1r	4r	.	4A'/	.	4c/	.	1r	1r	1r	1r	1r	1r	1r	4f/	4cc\	.	1ryy	1r	4a'\	4cc|\	1r
4BB-/	.	.	4B-/	.	4B-'/	.	4d/	.	.	.	.	.	.	.	.	4b-\	4dd\	.	.	.	4b-'\	4dd|\	.
4BB-/	.	.	4B-/	.	(8c/L	.	(8e-/L	.	.	.	.	.	.	.	.	(8cc\L	(8ee-\L	.	.	.	(8cc\L	(8ee-\L	.
.	.	.	.	.	8B-/)	.	8d/)	.	.	.	.	.	.	.	.	8b-\)	8dd\)	.	.	.	8b-\)	8dd\)	.
4BB-/	.	.	4B-/	.	(8d/	.	(8f/	.	.	.	.	.	.	.	.	(8dd\	(8ff\	.	.	.	(8dd\	(8ff\	.
.	.	.	.	.	8B-/J)	.	8d/J)	.	.	.	.	.	.	.	.	8b-\J)	8dd\J)	.	.	.	8b-\J)	8dd\J)	.
!	!	!	!	!	!LO:LB:g=origina	!	!	!	!	!	!	!	!	!	!	!	!	!	!	!	!	!	!
=90	=90	=90	=90	=90	=90	=90	=90	=90	=90	=90	=90	=90	=90	=90	=90	=90	=90	=90	=90	=90	=90	=90	=90
4F\	.	1r	4f\	.	4A/	.	4c/	.	1r	1r	1r	1r	1r	1r	1r	4f/	4cc\	.	1ryy	1r	4a\	4cc\	1r
4FF/	.	.	4F/	.	4A/	.	4c/	.	.	.	.	.	.	.	.	4f/	4cc\	.	.	.	4a\	4cc\	.
4FF/	.	.	4F/	.	4A/	.	4c/	.	.	.	.	.	.	.	.	4f/	4cc\	.	.	.	4a\	4cc\	.
4r	.	.	4r	.	4r	.	4r	.	.	.	.	.	.	.	.	4r	4r	.	.	.	4r	4r	.
=91:|!|:	=91:|!|:	=91:|!|:	=91:|!|:	=91:|!|:	=91:|!|:	=91:|!|:	=91:|!|:	=91:|!|:	=91:|!|:	=91:|!|:	=91:|!|:	=91:|!|:	=91:|!|:	=91:|!|:	=91:|!|:	=91:|!|:	=91:|!|:	=91:|!|:	=91:|!|:	=91:|!|:	=91:|!|:	=91:|!|:	=91:|!|:
!	!LO:DY:b:t=for	!	!	!LO:DY:b:t=for	!	!LO:DY:b:t=for	!	!LO:DY:b:t=for	!	!	!	!	!	!	!	!	!	!	!	!	!	!	!
4F\	f	1r	4F/	f	4f/	f	4f/	f	1r	1r	1r	1r	1r	1r	1r	1r	1r	.	1ryy	1r	4f/	4f/	1r
8.F\L	.	.	8.F/L	.	8.f/L	.	8.f/L	.	.	.	.	.	.	.	.	.	.	.	.	.	8.f/L	8.f/L	.
16F\Jk	.	.	16F/Jk	.	16f/Jk	.	16f/Jk	.	.	.	.	.	.	.	.	.	.	.	.	.	16f/Jk	16f/Jk	.
!	!	!	!LO:LB:g=original	!	!	!	!	!	!	!	!	!	!	!	!	!	!	!	!	!	!	!	!
8.A\L	.	.	8.A/L	.	8.a/L	.	8.a\L	.	.	.	.	.	.	.	.	.	.	.	.	.	8.a/L	8.a/L	.
16A\Jk	.	.	16A/Jk	.	16a/Jk	.	16a\Jk	.	.	.	.	.	.	.	.	.	.	.	.	.	16a/Jk	16a/Jk	.
!	!	!	!	!	!	!	!	!	!	!	!	!	!	!	!	!	!	!	!	!	!	!LO:TX:t=P:problem=8\	!
8.c\L	.	.	8.c\L	.	8.cc\L	.	8.cc\L	.	.	.	.	.	.	.	.	.	.	.	.	.	8.cc\L	8.cc\L	.
!	!	!	!	!	!	!	!	!	!	!	!	!	!	!	!	!	!	!	!	!	!	!LO:TX:t=P:problem=16\	!
16c\Jk	.	.	16c\Jk	.	16cc\Jk	.	16cc\Jk	.	.	.	.	.	.	.	.	.	.	.	.	.	16cc\Jk	16cc\Jk	.
!LO:LB:g=original	!	!	!	!	!	!	!	!	!	!	!	!	!	!	!	!	!	!	!	!	!	!	!
=92	=92	=92	=92	=92	=92	=92	=92	=92	=92	=92	=92	=92	=92	=92	=92	=92	=92	=92	=92	=92	=92	=92	=92
2e-\	.	1r	2e-\	.	2ee-\	.	2ee-\	.	1r	1r	1r	1r	1r	1r	1r	1r	1r	.	1ryy	1r	2ee-\	2ee-\	1r
4r	.	.	4r	.	4r	.	4r	.	.	.	.	.	.	.	.	.	.	.	.	.	4r	4r	.
!	!	!	!	!	!	!	!	!	!	!	!	!	!	!	!	!	!	!	!	!	!	!LO:TX:t=P:4\:problem	!
4e-\	.	.	4e-\	.	4ee-\	.	4ee-\	.	.	.	.	.	.	.	.	.	.	.	.	.	4ee-\	4ee-\	.
=93	=93	=93	=93	=93	=93	=93	=93	=93	=93	=93	=93	=93	=93	=93	=93	=93	=93	=93	=93	=93	=93	=93	=93
!	!	!	!	!	!	!	!	!	!	!	!	!	!	!	!	!	!	!	!	!	!LO:TX:t=P:4\:problem	!	!
4c\	.	1r	4c/	.	4cc\	.	4cc\	.	1r	1r	1r	1r	1r	1r	1r	1r	1r	.	1ryy	1r	4cc\	4cc\	1r
!	!	!	!	!	!	!	!	!	!	!	!	!	!	!	!	!	!	!	!	!	!LO:TX:t=P:4\:problem	!	!
4c\	.	.	4c/	.	4cc\	.	4cc\	.	.	.	.	.	.	.	.	.	.	.	.	.	4cc\	4cc\	.
!	!	!	!	!	!	!	!LO:LB:g=original	!	!	!	!	!	!	!	!	!	!	!	!	!	!LO:TX:t=P:4\:problem	!	!
4A\	.	.	4A/	.	4a\	.	4a/	.	.	.	.	.	.	.	.	.	.	.	.	.	4a\	4a\	.
4A\	.	.	4A/	.	4a\	.	4a/	.	.	.	.	.	.	.	.	.	.	.	.	.	4a\	4a\	.
=94	=94	=94	=94	=94	=94	=94	=94	=94	=94	=94	=94	=94	=94	=94	=94	=94	=94	=94	=94	=94	=94	=94	=94
2F\	.	1r	2F/	.	2f/	.	2f/	.	1r	1r	1r	1r	1r	1r	1r	1r	1r	.	1ryy	1r	2f/	2f/	1r
!	!	!	!	!	!	!	!	!	!	!	!	!	!	!	!	!LO:LB:g=original	!	!	!	!	!	!	!
2r	.	.	2r	.	2r	.	2r	.	.	.	.	.	.	.	.	.	.	.	.	.	2r	2r	.
=95	=95	=95	=95	=95	=95	=95	=95	=95	=95	=95	=95	=95	=95	=95	=95	=95	=95	=95	=95	=95	=95	=95	=95
!	!LO:DY:b:t=pia	!	!	!LO:DY:b:t=pia	!	!LO:DY:b:t=pia	!	!LO:DY:b:t=pia	!	!	!	!	!	!	!	!	!	!	!	!	!	!	!
4BB-/	p	1r	4B-/	p	2d/	p	2f/	p	1r	1r	1r	1r	1r	1r	1r	2dd\	2ff\	.	1ryy	1r	2dd\	2ff\	1r
4BB-/	.	.	4B-/	.	.	.	.	.	.	.	.	.	.	.	.	.	.	.	.	.	.	.	.
4BB-/	.	.	4B-/	.	(8e-/L	.	(8g/L	.	.	.	.	.	.	.	.	(8ee-\L	(8gg\L	.	.	.	(8ee-\L	(8gg\L	.
.	.	.	.	.	8d/)	.	8f/)	.	.	.	.	.	.	.	.	8dd\)	8ff\)	.	.	.	8dd\)	8ff\)	.
4BB-/	.	.	4B-/	.	(8c/	.	(8e-/	.	.	.	.	.	.	.	.	(8cc\	(8ee-\	.	.	.	(8cc\	(8ee-\	.
.	.	.	.	.	8B-/J)	.	8d/J)	.	.	.	.	.	.	.	.	8b-\J)	8dd\J)	.	.	.	8b-\J)	8dd\J)	.
!	!	!	!	!	!	!	!	!	!	!	!	!	!	!	!	!	!	!	!	!	!	!LO:LB:g=original	!
=96	=96	=96	=96	=96	=96	=96	=96	=96	=96	=96	=96	=96	=96	=96	=96	=96	=96	=96	=96	=96	=96	=96	=96
4r	.	1r	4r	.	4A'/	.	4c'/	.	1r	1r	1r	1r	1r	1r	1r	4f'/	4cc'\	.	1ryy	1r	4a'\	4cc'\	1r
4BB-/	.	.	4B-/	.	4B-'/	.	4d'/	.	.	.	.	.	.	.	.	4b-'\	4dd'\	.	.	.	4b-'\	4dd'\	.
4F\	.	.	4f\	.	4c'/	.	4e-'/	.	.	.	.	.	.	.	.	4cc'\	4ee-'\	.	.	.	4cc'\	4ee-'\	.
4FF/	.	.	4F/	.	4r	.	4r	.	.	.	.	.	.	.	.	4r	4r	.	.	.	4r	4r	.
!	!	!	!	!	!	!	!	!	!	!	!	!	!	!	!	!	!	!	!	!	!LO:LB:g=original	!	!
!	!	!	!	!	!LO:LB:g=origina	!	!	!	!	!	!	!	!	!	!	!	!	!	!	!	!	!	!
=97	=97	=97	=97	=97	=97	=97	=97	=97	=97	=97	=97	=97	=97	=97	=97	=97	=97	=97	=97	=97	=97	=97	=97
4BB-/	.	1r	4B-/	.	(8B-/L	.	(8d/L	.	1r	1r	1r	1r	1r	1r	1r	(8b-\L	(8dd\L	.	1ryy	1r	(8b-\L	(8dd\L	1r
.	.	.	.	.	8d/)	.	8f/)	.	.	.	.	.	.	.	.	8dd\)	8ff\)	.	.	.	8dd\)	8ff\)	.
4BB-/	.	.	4B-/	.	(8B-/	.	(8d/	.	.	.	.	.	.	.	.	(8b-\	(8dd\	.	.	.	(8b-\	(8dd\	.
.	.	.	.	.	8d/J)	.	8f/J)	.	.	.	.	.	.	.	.	8dd\J)	8ff\J)	.	.	.	8dd\J)	8ff\J)	.
4F\	.	.	4f\	.	(8d/L	.	(8f/L	.	.	.	.	.	.	.	.	(8dd\L	(8ff\L	.	.	.	(8dd\L	(8ff\L	.
.	.	.	.	.	8c/)	.	8e-/)	.	.	.	.	.	.	.	.	8cc\)	8ee-\)	.	.	.	8cc\)	8ee-\)	.
4FF/	.	.	4F/	.	(8B-/	.	(8d/	.	.	.	.	.	.	.	.	(8b-\	(8dd\	.	.	.	(8b-\	(8dd\	.
!LO:LB:g=original	!	!	!LO:LB:g=original	!	!	!	!	!	!	!	!	!	!	!	!	!	!	!	!	!	!	!	!
.	.	.	.	.	8A/J)	.	8c/J)	.	.	.	.	.	.	.	.	8f\J)	8cc\J)	.	.	.	8a\J)	8cc\J)	.
=98	=98	=98	=98	=98	=98	=98	=98	=98	=98	=98	=98	=98	=98	=98	=98	=98	=98	=98	=98	=98	=98	=98	=98
4BB-/	.	1r	4B-/	.	4B-/	.	4B-/	.	1r	1r	1r	1r	1r	1r	1r	4d/	4b-\	.	1ryy	1r	4d/	4b-\	1r
4BB-/	.	.	4B-/	.	4B-/	.	4B-/	.	.	.	.	.	.	.	.	4d/	4b-\	.	.	.	4d/	4b-\	.
4BB-/	.	.	4B-/	.	4B-/	.	4B-/	.	.	.	.	.	.	.	.	4d/	4b-\	.	.	.	4d/	4b-\	.
!	!	!	!	!	!	!	!	!	!	!	!	!	!	!	!	!LO:TX:t=P:problem=wężowate segno	!	!	!	!	!	!	!
4r	.	.	4r	.	4r	.	4r	.	.	.	.	.	.	.	.	4r	4r	.	.	.	4r	4r	.
!	!	!	!	!	!	!	!	!	!	!	!	!	!	!	!	!LO:LB:g=original	!	!	!	!	!	!	!
=99:|!	=99:|!	=99:|!	=99:|!	=99:|!	=99:|!	=99:|!	=99:|!	=99:|!	=99:|!	=99:|!	=99:|!	=99:|!	=99:|!	=99:|!	=99:|!	=99:|!	=99:|!	=99:|!	=99:|!	=99:|!	=99:|!	=99:|!	=99:|!
!	!	!	!	!	!	!	!	!	!	!	!	!	!	!	!	!LO:TX:t=P:problem=przepisuję tu takty 1-8	!LO:TX:t=P:problem=przepisuję tu takty 1-8	!	!	!	!	!	!
!	!	!	!	!	!	!LO:DY:b:t=pia	!	!	!	!	!	!	!	!	!	!LO:TX:a:t=dal Segno	!LO:TX:a:t=dal Segno	!	!	!	!	!	!
1r	.	1r	1r	.	4B-/	p	4B-/	.	1r	1r	1r	1r	1r	1r	1r	4b-\	4dd\	.	1ryy	1r	4.b-'\	4.dd'\	1r
.	.	.	.	.	4r	.	4r	.	.	.	.	.	.	.	.	4r	4r	.	.	.	.	.	.
.	.	.	.	.	.	.	.	.	.	.	.	.	.	.	.	.	.	.	.	.	8cc'\	8ee-'\	.
.	.	.	.	.	4r	.	4r	.	.	.	.	.	.	.	.	4r	4r	.	.	.	4dd'\	4ff'\	.
!	!	!	!	!	!	!	!	!LO:DY:b:t=pia	!	!	!	!	!	!	!	!	!	!	!	!	!	!	!
.	.	.	.	.	4b-\	.	4b-\	p	.	.	.	.	.	.	.	4dd\	4ff\	.	.	.	4r	4r	.
!	!	!	!	!	!	!	!LO:LB:g=original	!	!	!	!	!	!	!	!	!	!	!	!	!	!	!	!
=100	=100	=100	=100	=100	=100	=100	=100	=100	=100	=100	=100	=100	=100	=100	=100	=100	=100	=100	=100	=100	=100	=100	=100
1r	.	1r	1r	.	4f/	.	4f/	.	1r	1r	1r	1r	1r	1r	1r	4f/	4cc\	.	1ryy	1r	4.a'\	4.cc'\	1r
.	.	.	.	.	4r	.	4r	.	.	.	.	.	.	.	.	4r	4r	.	.	.	.	.	.
.	.	.	.	.	.	.	.	.	.	.	.	.	.	.	.	.	.	.	.	.	8b-'\	8dd'\	.
.	.	.	.	.	4r	.	4r	.	.	.	.	.	.	.	.	4r	4r	.	.	.	4cc'\	4ee-'\	.
.	.	.	.	.	4f/	.	4f/	.	.	.	.	.	.	.	.	4cc\	4ee-\	.	.	.	4r	4r	.
=101	=101	=101	=101	=101	=101	=101	=101	=101	=101	=101	=101	=101	=101	=101	=101	=101	=101	=101	=101	=101	=101	=101	=101
!	!	!	!	!	!	!	!	!	!	!	!	!	!	!	!	!	!LO:TX:t=P:4\:problem	!	!	!	!	!	!
1r	.	1r	1r	.	4B-/	.	4B-/	.	1r	1r	1r	1r	1r	1r	1r	4b-\	4dd\	.	1ryy	1r	(8cc\L	(8ee-\L	1r
.	.	.	.	.	.	.	.	.	.	.	.	.	.	.	.	.	.	.	.	.	8b-\)	8dd\)	.
.	.	.	.	.	4r	.	4r	.	.	.	.	.	.	.	.	4r	4r	.	.	.	(8a\	(8cc\	.
.	.	.	.	.	.	.	.	.	.	.	.	.	.	.	.	.	.	.	.	.	8g\J)	8b-\J)	.
.	.	.	.	.	4r	.	4r	.	.	.	.	.	.	.	.	2r	2r	.	.	.	(8f/L	(8a\L	.
.	.	.	.	.	.	.	.	.	.	.	.	.	.	.	.	.	.	.	.	.	8a/)	8cc\)	.
.	.	.	.	.	4B-/	.	4B-/	.	.	.	.	.	.	.	.	.	.	.	.	.	(8cc/	(8ee-\	.
.	.	.	.	.	.	.	.	.	.	.	.	.	.	.	.	.	.	.	.	.	8b-/J)	8dd\J)	.
=102	=102	=102	=102	=102	=102	=102	=102	=102	=102	=102	=102	=102	=102	=102	=102	=102	=102	=102	=102	=102	=102	=102	=102
!	!	!	!	!	!	!	!	!	!	!	!	!	!	!	!	!	!	!	!	!	!	!LO:TX:t=P:4\:problem	!
1r	.	1r	1r	.	4f/	.	4f/	.	1r	1r	1r	1r	1r	1r	1r	4f/	4cc\	.	1ryy	1r	4a/	4cc\	1r
.	.	.	.	.	4f/	.	4f/	.	.	.	.	.	.	.	.	4f/	4cc\	.	.	.	4a/	4cc\	.
.	.	.	.	.	8f'/L	.	8f/L	.	.	.	.	.	.	.	.	4f/	4cc\	.	.	.	4a/	4cc\	.
.	.	.	.	.	8e-'/	.	8e-/	.	.	.	.	.	.	.	.	.	.	.	.	.	.	.	.
.	.	.	.	.	8d'/	.	8d/	.	.	.	.	.	.	.	.	4r	4r	.	.	.	4r	4r	.
!	!	!	!	!	!	!	!	!	!	!	!	!	!	!	!	!LO:LB:g=original	!	!	!	!	!	!LO:LB:g=original	!
.	.	.	.	.	8c'/J	.	8c/J	.	.	.	.	.	.	.	.	.	.	.	.	.	.	.	.
!	!	!	!	!	!LO:LB:g=origina	!	!	!	!	!	!	!	!	!	!	!	!	!	!	!	!	!	!
=103	=103	=103	=103	=103	=103	=103	=103	=103	=103	=103	=103	=103	=103	=103	=103	=103	=103	=103	=103	=103	=103	=103	=103
!	!	!	!	!	!	!	!	!	!	!	!	!	!	!	!	!	!	!	!	!	!LO:TX:a:t=|	!	!
1r	.	1r	1r	.	4B-/	.	4B-/	.	1r	1r	1r	1r	1r	1r	1r	4b-\	4dd\	.	1ryy	1r	4.b-\	4.dd'\	1r
.	.	.	.	.	4r	.	4r	.	.	.	.	.	.	.	.	4r	4r	.	.	.	.	.	.
!	!	!	!	!	!	!	!	!	!	!	!	!	!	!	!	!	!	!	!	!	!LO:TX:a:t=|	!LO:TX:t=P:problem=8\	!
.	.	.	.	.	.	.	.	.	.	.	.	.	.	.	.	.	.	.	.	.	8cc\	8ee-'\	.
!	!	!	!	!	!	!	!	!	!	!	!	!	!	!	!	!	!	!	!	!	!LO:TX:a:t=|	!	!
.	.	.	.	.	4r	.	4r	.	.	.	.	.	.	.	.	4r	4r	.	.	.	4dd\	4ff'\	.
.	.	.	.	.	4b-\	.	4b-\	.	.	.	.	.	.	.	.	4dd\	4ff\	.	.	.	4r	4r	.
!	!	!	!	!	!	!	!	!	!	!	!	!	!	!	!	!	!LO:LB:g=original	!	!	!	!LO:LB:g=original	!	!
=104	=104	=104	=104	=104	=104	=104	=104	=104	=104	=104	=104	=104	=104	=104	=104	=104	=104	=104	=104	=104	=104	=104	=104
!	!	!	!	!	!	!	!	!	!	!	!	!	!	!	!	!	!	!	!	!	!	!LO:TX:t=P:4.\:problem	!
1r	.	1r	1r	.	4f/	.	4f/	.	1r	1r	1r	1r	1r	1r	1r	4f/	4cc\	.	1ryy	1r	4.a'\	4.cc'\	1r
.	.	.	.	.	4r	.	4r	.	.	.	.	.	.	.	.	4r	4r	.	.	.	.	.	.
.	.	.	.	.	.	.	.	.	.	.	.	.	.	.	.	.	.	.	.	.	8b-'\	8dd'\	.
!	!	!	!	!	!	!	!	!	!	!	!	!	!	!	!	!	!	!	!	!	!LO:TX:t=P:4\:problem	!	!
.	.	.	.	.	4r	.	4r	.	.	.	.	.	.	.	.	4r	4r	.	.	.	4cc'\	4ee-'\	.
.	.	.	.	.	4f/	.	4f/	.	.	.	.	.	.	.	.	4cc\	4ee-\	.	.	.	4r	4r	.
=105	=105	=105	=105	=105	=105	=105	=105	=105	=105	=105	=105	=105	=105	=105	=105	=105	=105	=105	=105	=105	=105	=105	=105
1r	.	1r	1r	.	4b-\	.	4b-\	.	1r	1r	1r	1r	1r	1r	1r	2b-\	2dd\	.	1ryy	1r	(8g/L	(8ee-\L	1r
.	.	.	.	.	.	.	.	.	.	.	.	.	.	.	.	.	.	.	.	.	8f/)	8dd\)	.
.	.	.	.	.	4b-\	.	4b-\	.	.	.	.	.	.	.	.	.	.	.	.	.	(8e-/	(8cc\	.
.	.	.	.	.	.	.	.	.	.	.	.	.	.	.	.	.	.	.	.	.	8d/J)	8b-\J)	.
.	.	.	.	.	4f/	.	4f/	.	.	.	.	.	.	.	.	2fT/	2ccT\	.	.	.	(8f/L	(8dd\L	.
.	.	.	.	.	.	.	.	.	.	.	.	.	.	.	.	.	.	.	.	.	8e-/)	8cc\)	.
.	.	.	.	.	4f/	.	4f/	.	.	.	.	.	.	.	.	.	.	.	.	.	(8d/	(8b-\	.
.	.	.	.	.	.	.	.	.	.	.	.	.	.	.	.	.	.	.	.	.	8c/J)	8a\J)	.
=106	=106	=106	=106	=106	=106	=106	=106	=106	=106	=106	=106	=106	=106	=106	=106	=106	=106	=106	=106	=106	=106	=106	=106
1r	.	1r	1r	.	4B-/	.	4B-/	.	1r	1r	1r	1r	1r	1r	1r	4d/	4b-\	.	1ryy	1r	4d/	4b-\	1r
.	.	.	.	.	4b-\	.	4b-\	.	.	.	.	.	.	.	.	4d/	4b-\	.	.	.	4d/	4b-\	.
.	.	.	.	.	4B-/	.	4B-/	.	.	.	.	.	.	.	.	4d/	4b-\	.	.	.	4d/	4b-\	.
!	!	!	!	!	!	!	!	!	!	!	!	!	!	!	!	!LO:TX:a:t=finis	!LO:TX:a:t=finis	!	!	!	!	!	!
.	.	.	.	.	4r	.	4r	.	.	.	.	.	.	.	.	4r;	4r;	.	.	.	4r	4r	.
!	!	!	!	!	!	!	!LO:LB:g=original	!	!	!	!	!	!	!	!	!LO:LB:g=original	!	!	!	!	!	!	!
=107	=107	=107	=107	=107	=107	=107	=107	=107	=107	=107	=107	=107	=107	=107	=107	=107	=107	=107	=107	=107	=107	=107	=107
!	!	!	!	!	!	!	!	!	!	!	!	!	!	!	!	!LO:TX:t=P:problem=powtórka w tt. 107-114 oznaczona znakiem repetycji (repetycja wynikająca z kresek w ramach segno)	!LO:TX:t=P:problem=przepisuję tu takty 1-8	!	!	!	!	!	!
!	!LO:DY:b:t=for	!	!	!LO:DY:b:t=for	!	!LO:DY:b:t=for	!	!LO:DY:b:t=for	!	!	!	!	!	!	!	!LO:TX:t=P:problem=przepisuję tu takty 1-8	!LO:TX:t=P:problem=powtórka w tt. 107-114 oznaczona znakiem repetycji (repetycja wynikająca z kresek w ramach segno)	!	!	!	!LO:TX:t=P:problem=powtórka w tt. 107-114 oznaczona znakiem repetycji	!LO:TX:t=P:problem=powtórka w tt. 107-114 oznaczona znakiem repetycji	!
4BB-/	f	1r	4B-/	f	4.b-'\	f	4.dd|\	f	1r	1r	1r	1r	1r	1r	1r	4b-\	4dd\	.	1ryy	1r	4.b-'\	4.dd'\	1r
4r	.	.	4r	.	.	.	.	.	.	.	.	.	.	.	.	4r	4r	.	.	.	.	.	.
.	.	.	.	.	8cc'\	.	8ee-|\	.	.	.	.	.	.	.	.	.	.	.	.	.	8cc'\	8ee-'\	.
4r	.	.	4r	.	4dd'\	.	4ff'\	.	.	.	.	.	.	.	.	4r	4r	.	.	.	4dd'\	4ff'\	.
4B-\	.	.	4B-/	.	4r	.	4r	.	.	.	.	.	.	.	.	4dd\	4ff\	.	.	.	4r	4r	.
=108	=108	=108	=108	=108	=108	=108	=108	=108	=108	=108	=108	=108	=108	=108	=108	=108	=108	=108	=108	=108	=108	=108	=108
4F\	.	1r	4F/	.	4.a'\	.	4.cc'\	.	1r	1r	1r	1r	1r	1r	1r	4f/	4cc\	.	1ryy	1r	4.a'\	4.cc'\	1r
4r	.	.	4r	.	.	.	.	.	.	.	.	.	.	.	.	4r	4r	.	.	.	.	.	.
.	.	.	.	.	8b-'\	.	8dd'\	.	.	.	.	.	.	.	.	.	.	.	.	.	8b-'\	8dd'\	.
4r	.	.	4r	.	4cc'\	.	4ee-'\	.	.	.	.	.	.	.	.	4r	4r	.	.	.	4cc'\	4ee-'\	.
4F\	.	.	4F/	.	4r	.	4r	.	.	.	.	.	.	.	.	4cc\	4ee-\	.	.	.	4r	4r	.
!	!	!	!	!	!LO:LB:g=origina	!	!	!	!	!	!	!	!	!	!	!	!	!	!	!	!	!	!
=109	=109	=109	=109	=109	=109	=109	=109	=109	=109	=109	=109	=109	=109	=109	=109	=109	=109	=109	=109	=109	=109	=109	=109
!	!	!	!	!	!	!	!	!	!	!	!	!	!	!	!	!	!LO:TX:t=P:4\:problem	!	!	!	!	!	!
4BB-/	.	1r	4B-/	.	(8cc\L	.	(8ee-\L	.	1r	1r	1r	1r	1r	1r	1r	4b-\	4dd\	.	1ryy	1r	(8cc\L	(8ee-\L	1r
.	.	.	.	.	8b-\)	.	8dd\)	.	.	.	.	.	.	.	.	.	.	.	.	.	8b-\)	8dd\)	.
4r	.	.	4r	.	(8a\	.	(8cc\	.	.	.	.	.	.	.	.	4r	4r	.	.	.	(8a\	(8cc\	.
.	.	.	.	.	8g\J)	.	8b-\J)	.	.	.	.	.	.	.	.	.	.	.	.	.	8g\J)	8b-\J)	.
4r	.	.	4r	.	(8f\L	.	(8a\L	.	.	.	.	.	.	.	.	2r	2r	.	.	.	(8f/L	(8a\L	.
.	.	.	.	.	8a\)	.	8cc\)	.	.	.	.	.	.	.	.	.	.	.	.	.	8a/)	8cc\)	.
4BB-/	.	.	4B-/	.	(8cc\	.	(8ee-\	.	.	.	.	.	.	.	.	.	.	.	.	.	(8cc/	(8ee-\	.
.	.	.	.	.	8b-\J)	.	8dd\J)	.	.	.	.	.	.	.	.	.	.	.	.	.	8b-/J)	8dd\J)	.
=110	=110	=110	=110	=110	=110	=110	=110	=110	=110	=110	=110	=110	=110	=110	=110	=110	=110	=110	=110	=110	=110	=110	=110
!	!	!	!	!	!	!	!	!	!	!	!	!	!	!	!	!	!	!	!	!	!	!LO:TX:t=P:4\:problem	!
4F\	.	1r	4f\	.	4a\	.	4cc\	.	1r	1r	1r	1r	1r	1r	1r	4f/	4cc\	.	1ryy	1r	4a/	4cc\	1r
4FF/	.	.	4F/	.	4a\	.	4cc\	.	.	.	.	.	.	.	.	4f/	4cc\	.	.	.	4a/	4cc\	.
8F'\L	.	.	8f'\L	.	4a\	.	4cc\	.	.	.	.	.	.	.	.	4f/	4cc\	.	.	.	4a/	4cc\	.
8E-'\	.	.	8e-'\	.	.	.	.	.	.	.	.	.	.	.	.	.	.	.	.	.	.	.	.
8D'\	.	.	8d'\	.	4r	.	4r	.	.	.	.	.	.	.	.	4r	4r	.	.	.	4r	4r	.
!	!	!	!	!	!	!	!	!	!	!	!	!	!	!	!	!LO:LB:g=original	!	!	!	!	!	!LO:LB:g=original	!
8C'\J	.	.	8c'\J	.	.	.	.	.	.	.	.	.	.	.	.	.	.	.	.	.	.	.	.
!LO:LB:g=original	!	!	!LO:LB:g=original	!	!	!	!	!	!	!	!	!	!	!	!	!	!	!	!	!	!	!	!
=111	=111	=111	=111	=111	=111	=111	=111	=111	=111	=111	=111	=111	=111	=111	=111	=111	=111	=111	=111	=111	=111	=111	=111
!	!	!	!	!	!	!	!	!	!	!	!	!	!	!	!	!	!	!	!	!	!LO:TX:a:t=|	!	!
4BB-/	.	1r	4B-/	.	4.b-'\	.	4.dd'\	.	1r	1r	1r	1r	1r	1r	1r	4b-\	4dd\	.	1ryy	1r	4.b-\	4.dd'\	1r
4r	.	.	4r	.	.	.	.	.	.	.	.	.	.	.	.	4r	4r	.	.	.	.	.	.
!	!	!	!	!	!	!	!	!	!	!	!	!	!	!	!	!	!	!	!	!	!LO:TX:a:t=|	!LO:TX:t=P:problem=8\	!
.	.	.	.	.	8cc'\	.	8ee-'\	.	.	.	.	.	.	.	.	.	.	.	.	.	8cc\	8ee-'\	.
!	!	!	!	!	!	!	!	!	!	!	!	!	!	!	!	!	!	!	!	!	!LO:TX:a:t=|	!	!
4r	.	.	4r	.	4dd'\	.	4ff'\	.	.	.	.	.	.	.	.	4r	4r	.	.	.	4dd\	4ff'\	.
4B-\	.	.	4B-/	.	4r	.	4r	.	.	.	.	.	.	.	.	4dd\	4ff\	.	.	.	4r	4r	.
!	!	!	!	!	!	!	!	!	!	!	!	!	!	!	!	!	!LO:LB:g=original	!	!	!	!LO:LB:g=original	!	!
!	!	!	!	!	!	!	!LO:LB:g=original	!	!	!	!	!	!	!	!	!	!	!	!	!	!	!	!
=112	=112	=112	=112	=112	=112	=112	=112	=112	=112	=112	=112	=112	=112	=112	=112	=112	=112	=112	=112	=112	=112	=112	=112
!	!	!	!	!	!	!	!	!	!	!	!	!	!	!	!	!	!	!	!	!	!	!LO:TX:t=P:4.\:problem	!
4F\	.	1r	4F/	.	4.a'\	.	4.cc'\	.	1r	1r	1r	1r	1r	1r	1r	4f/	4cc\	.	1ryy	1r	4.a'\	4.cc'\	1r
4r	.	.	4r	.	.	.	.	.	.	.	.	.	.	.	.	4r	4r	.	.	.	.	.	.
.	.	.	.	.	8b-'\	.	8dd'\	.	.	.	.	.	.	.	.	.	.	.	.	.	8b-'\	8dd'\	.
!	!	!	!	!	!	!	!	!	!	!	!	!	!	!	!	!	!	!	!	!	!LO:TX:t=P:4\:problem	!	!
4r	.	.	4r	.	4cc'\	.	4ee-'\	.	.	.	.	.	.	.	.	4r	4r	.	.	.	4cc'\	4ee-'\	.
4F\	.	.	4F/	.	4r	.	4r	.	.	.	.	.	.	.	.	4cc\	4ee-\	.	.	.	4r	4r	.
=113	=113	=113	=113	=113	=113	=113	=113	=113	=113	=113	=113	=113	=113	=113	=113	=113	=113	=113	=113	=113	=113	=113	=113
4B-\	.	1r	4B-/	.	(8g/L	.	(8ee-\L	.	1r	1r	1r	1r	1r	1r	1r	2b-\	2dd\	.	1ryy	1r	(8g/L	(8ee-\L	1r
.	.	.	.	.	8f/)	.	8dd\)	.	.	.	.	.	.	.	.	.	.	.	.	.	8f/)	8dd\)	.
4BB-/	.	.	4B-/	.	(8e-/	.	(8cc\	.	.	.	.	.	.	.	.	.	.	.	.	.	(8e-/	(8cc\	.
.	.	.	.	.	8d/J)	.	8b-\J)	.	.	.	.	.	.	.	.	.	.	.	.	.	8d/J)	8b-\J)	.
4F\	.	.	4f\	.	(8f/L	.	(8dd\L	.	.	.	.	.	.	.	.	2fT/	2ccT\	.	.	.	(8f/L	(8dd\L	.
.	.	.	.	.	8e-/)	.	8cc\)	.	.	.	.	.	.	.	.	.	.	.	.	.	8e-/)	8cc\)	.
4FF/	.	.	4F/	.	(8d/	.	(8b-\	.	.	.	.	.	.	.	.	.	.	.	.	.	(8d/	(8b-\	.
.	.	.	.	.	8c/J)	.	8a\J)	.	.	.	.	.	.	.	.	.	.	.	.	.	8c/J)	8a\J)	.
=114	=114	=114	=114	=114	=114	=114	=114	=114	=114	=114	=114	=114	=114	=114	=114	=114	=114	=114	=114	=114	=114	=114	=114
4BB-/	.	1r	4B-/	.	4d/	.	4b-\	.	1r	1r	1r	1r	1r	1r	1r	4d/	4b-\	.	1ryy	1r	4d/	4b-\	1r
4B-\	.	.	4B-/	.	4d/	.	4b-\	.	.	.	.	.	.	.	.	4d/	4b-\	.	.	.	4d/	4b-\	.
4BB-/	.	.	4B-/	.	4d/	.	4b-\	.	.	.	.	.	.	.	.	4d/	4b-\	.	.	.	4d/	4b-\	.
!	!	!	!	!	!	!	!	!	!	!	!	!	!	!	!	!LO:TX:a:t=finis	!LO:TX:a:t=finis	!	!	!	!	!	!
4r	.	.	4r	.	4r	.	4r	.	.	.	.	.	.	.	.	4r;	4r;	.	.	.	4r	4r	.
!	!	!	!	!	!	!	!	!	!	!	!	!	!	!	!	!	!LO:LB:g=original	!	!	!	!	!	!
!	!	!	!	!	!	!	!	!	!	!	!	!	!	!	!	!LO:LB:g=original	!	!	!	!	!	!	!
!	!	!	!	!	!LO:LB:g=origina	!	!	!	!	!	!	!	!	!	!	!	!	!	!	!	!	!	!
=115	=115	=115	=115	=115	=115	=115	=115	=115	=115	=115	=115	=115	=115	=115	=115	=115	=115	=115	=115	=115	=115	=115	=115
!	!	!	!LO:TX:a:t=|	!	!LO:TX:a:t=|	!LO:DY:b:t=for	!LO:TX:a:t=|	!	!	!	!	!	!	!	!	!	!	!	!	!	!	!LO:TX:a:t=|	!
4BB-/	.	1r	4B-/	.	4B-/	f	4B-/	.	1r	1r	1r	1r	1r	1r	1r	1r	1r	.	1ryy	1r	4b-'\	4b-\	1r
!	!LO:DY:b:t=for	!	!LO:TX:a:t=|	!LO:DY:b:t=for	!LO:TX:a:t=|	!	!LO:TX:a:t=|	!	!	!	!	!	!	!	!	!	!	!	!	!	!	!LO:TX:a:t=|	!
8B-'\L	f	.	8B-/L	f	8b-\L	.	8b-\L	.	.	.	.	.	.	.	.	.	.	.	.	.	8b-'\L	8b-\L	.
!	!	!	!LO:TX:a:t=|	!	!LO:TX:a:t=|	!	!LO:TX:a:t=|	!	!	!	!	!	!	!	!	!	!	!	!	!	!	!LO:TX:a:t=|	!
8A'\J	.	.	8A/J	.	8a\J	.	8a\J	.	.	.	.	.	.	.	.	.	.	.	.	.	8a'\J	8a\J	.
!	!	!	!LO:TX:a:t=|	!	!LO:TX:a:t=|	!	!LO:TX:a:t=|	!	!	!	!	!	!	!	!	!	!	!	!	!	!LO:TX:a:t=|	!LO:TX:a:t=|	!
4B-'\	.	.	4B-/	.	4b-\	.	4b-\	.	.	.	.	.	.	.	.	.	.	.	.	.	4b-\	4b-\	.
!	!	!	!LO:TX:a:t=|	!	!LO:TX:a:t=|	!	!LO:TX:a:t=|	!	!	!	!	!	!	!	!	!	!	!	!	!	!LO:TX:a:t=|	!LO:TX:a:t=|	!
4A'\	.	.	4A/	.	4a\	.	4a\	.	.	.	.	.	.	.	.	.	.	.	.	.	4a\	4a\	.
!LO:LB:g=original	!	!	!LO:LB:g=original	!	!	!	!	!	!	!	!	!	!	!	!	!	!	!	!	!	!	!	!
=116	=116	=116	=116	=116	=116	=116	=116	=116	=116	=116	=116	=116	=116	=116	=116	=116	=116	=116	=116	=116	=116	=116	=116
!	!	!	!	!	!LO:TX:a:t=|	!	!LO:TX:a:t=|	!	!	!	!	!	!	!	!	!	!	!	!	!	!LO:TX:a:t=|	!LO:TX:a:t=|	!
4G\	.	1r	4G'/	.	4g\	.	4g/	.	1r	1r	1r	1r	1r	1r	1r	1r	1r	.	1ryy	1r	4g\	4g\	1r
!	!	!	!	!	!LO:TX:a:t=|	!	!LO:TX:a:t=|	!	!	!	!	!	!	!	!	!	!	!	!	!	!LO:TX:a:t=|	!LO:TX:a:t=|	!
8A'\L	.	.	8A'/L	.	8a\L	.	8a/L	.	.	.	.	.	.	.	.	.	.	.	.	.	8a\L	8a\L	.
!	!	!	!	!	!LO:TX:a:t=|	!	!LO:TX:a:t=|	!	!	!	!	!	!	!	!	!	!	!	!	!	!LO:TX:a:t=|	!LO:TX:a:t=|	!
8B-'\J	.	.	8B-'/J	.	8b-\J	.	8b-/J	.	.	.	.	.	.	.	.	.	.	.	.	.	8b-\J	8b-\J	.
!	!	!	!	!	!LO:TX:a:t=|	!	!LO:TX:a:t=|	!	!	!	!	!	!	!	!	!	!	!	!	!	!LO:TX:a:t=|	!LO:TX:a:t=|	!
8c'\L	.	.	8c'/L	.	8cc\L	.	8cc/L	.	.	.	.	.	.	.	.	.	.	.	.	.	8cc\L	8cc\L	.
!	!	!	!	!	!LO:TX:a:t=|	!	!LO:TX:a:t=|	!	!	!	!	!	!	!	!	!	!	!	!	!	!LO:TX:a:t=|	!LO:TX:a:t=|	!
8B-'\	.	.	8B-'/	.	8b-\	.	8b-/	.	.	.	.	.	.	.	.	.	.	.	.	.	8b-\	8b-\	.
!	!	!	!	!	!LO:TX:a:t=|	!	!LO:TX:a:t=|	!	!	!	!	!	!	!	!	!	!	!	!	!	!LO:TX:a:t=|	!LO:TX:a:t=|	!
8A'\	.	.	8A'/	.	8a\	.	8a/	.	.	.	.	.	.	.	.	.	.	.	.	.	8a\	8a\	.
!	!	!	!	!	!LO:TX:a:t=|	!	!LO:TX:a:t=|	!	!	!	!	!	!	!	!	!	!	!	!	!	!LO:TX:a:t=|	!LO:TX:a:t=|	!
8G'\J	.	.	8G'/J	.	8g\J	.	8g/J	.	.	.	.	.	.	.	.	.	.	.	.	.	8g\J	8g\J	.
!	!	!	!	!	!	!	!LO:LB:g=original	!	!	!	!	!	!	!	!	!	!	!	!	!	!	!	!
=117	=117	=117	=117	=117	=117	=117	=117	=117	=117	=117	=117	=117	=117	=117	=117	=117	=117	=117	=117	=117	=117	=117	=117
!	!	!	!	!	!	!	!	!	!	!	!	!	!	!	!	!	!	!	!	!	!	!LO:TX:a:t=|	!
4F\	.	1r	4F'/	.	4f'/	.	4f'/	.	1r	1r	1r	1r	1r	1r	1r	1r	1r	.	1ryy	1r	4f'/	4f/	1r
!	!	!	!	!	!	!	!	!	!	!	!	!	!	!	!	!	!	!	!	!	!	!LO:TX:a:t=|	!
8G'\L	.	.	8G'/L	.	8g'/L	.	8g'/L	.	.	.	.	.	.	.	.	.	.	.	.	.	8g'/L	8g/L	.
!	!	!	!	!	!	!	!	!	!	!	!	!	!	!	!	!	!	!	!	!	!	!LO:TX:a:t=|	!
8A'\J	.	.	8A'/J	.	8a'/J	.	8a'/J	.	.	.	.	.	.	.	.	.	.	.	.	.	8a'/J	8a/J	.
!	!	!	!	!	!	!	!	!	!	!	!	!	!	!	!	!	!	!	!	!	!LO:TX:a:t=|	!LO:TX:a:t=|	!
4B-'\	.	.	4B-'/	.	4b-'\	.	4b-'\	.	.	.	.	.	.	.	.	.	.	.	.	.	4b-\	4b-\	.
!	!	!	!	!	!	!	!	!	!	!	!	!	!	!	!	!	!	!	!	!	!	!LO:TX:a:t=|	!
8c'\L	.	.	8c'/L	.	8cc'\L	.	8cc'\L	.	.	.	.	.	.	.	.	.	.	.	.	.	8cc'\L	8cc\L	.
!	!	!	!	!	!	!	!	!	!	!	!	!	!	!	!	!	!	!	!	!	!	!LO:TX:a:t=|	!
8B-'\J	.	.	8A'/J	.	8dd'\J	.	8dd'\J	.	.	.	.	.	.	.	.	.	.	.	.	.	8dd'\J	8dd\J	.
=118	=118	=118	=118	=118	=118	=118	=118	=118	=118	=118	=118	=118	=118	=118	=118	=118	=118	=118	=118	=118	=118	=118	=118
2F\	.	1r	2F/	.	2cc\	.	2ee-\	.	1r	1r	1r	1r	1r	1r	1r	2F/	2f/	.	1ryy	1r	2cc\	2ee-\	1r
2r;	.	.	2r;	.	2r;	.	2r;	.	.	.	.	.	.	.	.	2r;	2r;	.	.	.	2r;	2r;	.
!	!	!	!	!	!	!	!	!	!	!	!	!	!	!	!	!	!	!	!	!	!	!LO:LB:g=original	!
=119	=119	=119	=119	=119	=119	=119	=119	=119	=119	=119	=119	=119	=119	=119	=119	=119	=119	=119	=119	=119	=119	=119	=119
!	!LO:DY:b:t=pianiſsimo	!	!	!	!	!	!	!LO:DY:b:t=pianiſsimo	!	!	!	!	!	!	!	!	!	!	!	!	!	!	!
(1FF	pp	1r	1r;	.	1r	.	(4.ee-\	pp	1r	1r	1r	1r	1r	1r	1r	1r	1r	.	1ryy	1r	1r;	1r;	1r
.	.	.	.	.	.	.	8cc\)	.	.	.	.	.	.	.	.	.	.	.	.	.	.	.	.
.	.	.	.	.	.	.	(4.dd\	.	.	.	.	.	.	.	.	.	.	.	.	.	.	.	.
.	.	.	.	.	.	.	8b-\)	.	.	.	.	.	.	.	.	.	.	.	.	.	.	.	.
=120	=120	=120	=120	=120	=120	=120	=120	=120	=120	=120	=120	=120	=120	=120	=120	=120	=120	=120	=120	=120	=120	=120	=120
!	!	!	!	!	!	!LO:DY:b:t=pianiſsimo	!	!	!	!	!	!	!	!	!	!	!	!	!	!	!	!	!
(1FF)	.	1r	1r	.	(4.e-/	pp	(4.cc\	.	1r	1r	1r	1r	1r	1r	1r	1r	1r	.	1ryy	1r	1r	1r	1r
.	.	.	.	.	8c/)	.	8a\)	.	.	.	.	.	.	.	.	.	.	.	.	.	.	.	.
.	.	.	.	.	(4.d/	.	(4.b-\	.	.	.	.	.	.	.	.	.	.	.	.	.	.	.	.
.	.	.	.	.	8B-/)	.	8dd\)	.	.	.	.	.	.	.	.	.	.	.	.	.	.	.	.
!	!	!	!	!	!LO:LB:g=origina	!	!	!	!	!	!	!	!	!	!	!	!	!	!	!	!	!	!
=121	=121	=121	=121	=121	=121	=121	=121	=121	=121	=121	=121	=121	=121	=121	=121	=121	=121	=121	=121	=121	=121	=121	=121
(1FF)	.	1r	1r	.	(4.c/	.	(4.ee-\	.	1r	1r	1r	1r	1r	1r	1r	1r	1r	.	1ryy	1r	1r	1r	1r
.	.	.	.	.	8A/)	.	8cc\)	.	.	.	.	.	.	.	.	.	.	.	.	.	.	.	.
.	.	.	.	.	(4.B-/	.	(4.dd\	.	.	.	.	.	.	.	.	.	.	.	.	.	.	.	.
.	.	.	.	.	8d/)	.	8b-\)	.	.	.	.	.	.	.	.	.	.	.	.	.	.	.	.
!	!	!	!	!	!	!	!LO:LB:g=original	!	!	!	!	!	!	!	!	!	!	!	!	!	!	!	!
=122	=122	=122	=122	=122	=122	=122	=122	=122	=122	=122	=122	=122	=122	=122	=122	=122	=122	=122	=122	=122	=122	=122	=122
!	!	!	!	!	!	!	!	!LO:DY:b:t=for	!	!	!	!	!	!	!	!	!	!	!	!	!	!	!
2FF;/)	.	1r	1r	.	2f;/	.	2f;/	f	1r	1r	1r	1r	1r	1r	1r	2F/	2f/	.	1ryy	1r	1r	1r	1r
!	!	!	!	!	!	!	!	!	!	!	!	!	!	!	!	!	!	!	!	!	!LO:LB:g=original	!	!
2r	.	.	.	.	2r	.	2r	.	.	.	.	.	.	.	.	2r;	2r;	.	.	.	.	.	.
!LO:LB:g=original	!	!	!	!	!	!	!	!	!	!	!	!	!	!	!	!	!	!	!	!	!	!	!
=123	=123	=123	=123	=123	=123	=123	=123	=123	=123	=123	=123	=123	=123	=123	=123	=123	=123	=123	=123	=123	=123	=123	=123
!	!	!	!	!	!	!LO:DY:b:t=pia	!	!LO:DY:b:t=pia	!	!	!	!	!	!	!	!	!	!	!	!	!	!	!
1r	.	1r	1r	.	4B-/	p	4B-/	p	1r	1r	1r	1r	1r	1r	1r	4b-\	4dd\	.	1ryy	1r	4.b-|\	4.dd'\	1r
.	.	.	.	.	4r	.	4r	.	.	.	.	.	.	.	.	4r	4r	.	.	.	.	.	.
.	.	.	.	.	.	.	.	.	.	.	.	.	.	.	.	.	.	.	.	.	8cc'\	8ee-'\	.
.	.	.	.	.	4r	.	4r	.	.	.	.	.	.	.	.	4r	4r	.	.	.	4dd'\	4ff'\	.
.	.	.	.	.	4b-\	.	4b-\	.	.	.	.	.	.	.	.	4dd\	4ff\	.	.	.	4r	4r	.
=124	=124	=124	=124	=124	=124	=124	=124	=124	=124	=124	=124	=124	=124	=124	=124	=124	=124	=124	=124	=124	=124	=124	=124
1r	.	1r	1r	.	4f/	.	4f/	.	1r	1r	1r	1r	1r	1r	1r	4f/	4cc\	.	1ryy	1r	4.a|\	4.cc|\	1r
.	.	.	.	.	4r	.	4r	.	.	.	.	.	.	.	.	4r	4r	.	.	.	.	.	.
.	.	.	.	.	.	.	.	.	.	.	.	.	.	.	.	.	.	.	.	.	8b-|\	8dd'\	.
.	.	.	.	.	4r	.	4r	.	.	.	.	.	.	.	.	4r	4r	.	.	.	4cc'\	4ee-'\	.
.	.	.	.	.	4f/	.	4f/	.	.	.	.	.	.	.	.	4cc\	4ee-\	.	.	.	4r	4r	.
=125	=125	=125	=125	=125	=125	=125	=125	=125	=125	=125	=125	=125	=125	=125	=125	=125	=125	=125	=125	=125	=125	=125	=125
!	!LO:DY:b:t=pia	!	!	!LO:DY:b:t=pia	!	!	!	!	!	!	!	!	!	!	!	!	!	!	!	!	!	!	!
4BB-/	p	1r	4B-/	p	4.B-'/	.	4.d/	.	1r	1r	1r	1r	1r	1r	1r	4b-\	4dd\	.	1ryy	1r	1r	1r	1r
4r	.	.	4r	.	.	.	.	.	.	.	.	.	.	.	.	4r	4r	.	.	.	.	.	.
.	.	.	.	.	8c'/	.	8e-/	.	.	.	.	.	.	.	.	.	.	.	.	.	.	.	.
4r	.	.	4r	.	4d'/	.	4f/	.	.	.	.	.	.	.	.	4r	4r	.	.	.	.	.	.
4B-\	.	.	4B-/	.	4r	.	4r	.	.	.	.	.	.	.	.	4dd\	4ff\	.	.	.	.	.	.
!	!	!	!	!	!	!	!	!	!	!	!	!	!	!	!	!	!LO:LB:g=original	!	!	!	!	!	!
!	!	!	!LO:LB:g=original	!	!	!	!	!	!	!	!	!	!	!	!	!LO:LB:g=original	!	!	!	!	!	!	!
=126	=126	=126	=126	=126	=126	=126	=126	=126	=126	=126	=126	=126	=126	=126	=126	=126	=126	=126	=126	=126	=126	=126	=126
4F\	.	1r	4F/	.	4.A'/	.	4.c/	.	1r	1r	1r	1r	1r	1r	1r	4f/	4cc\	.	1ryy	1r	1r	1r	1r
4r	.	.	4r	.	.	.	.	.	.	.	.	.	.	.	.	4r	4r	.	.	.	.	.	.
.	.	.	.	.	8B-'/	.	8d/	.	.	.	.	.	.	.	.	.	.	.	.	.	.	.	.
4r	.	.	4r	.	4c'/	.	4e-/	.	.	.	.	.	.	.	.	4r	4r	.	.	.	.	.	.
!	!	!	!	!	!	!	!	!	!	!	!	!	!	!	!	!	!LO:TX:t=P:f=for &colon;global:problem	!	!	!	!	!	!
4F\	.	.	4F/	.	4r	.	4r	.	.	.	.	.	.	.	.	4cc\	4ee-\	f	.	.	.	.	.
!	!	!	!	!	!LO:LB:g=origina	!	!	!	!	!	!	!	!	!	!	!	!	!	!	!	!	!	!
=127	=127	=127	=127	=127	=127	=127	=127	=127	=127	=127	=127	=127	=127	=127	=127	=127	=127	=127	=127	=127	=127	=127	=127
!	!LO:DY:b:t=for	!	!	!LO:DY:b:t=for	!	!LO:DY:b:t=for	!	!	!	!	!	!	!	!	!	!	!	!	!	!	!	!	!
4BB-/	f	1r	4B-/	f	2d/	f	2b-\	.	1r	1r	1r	1r	1r	1r	1r	2b-\	2dd\	.	1ryy	1r	2b-\	2dd\	1r
4B-\	.	.	4b-\	.	.	.	.	.	.	.	.	.	.	.	.	.	.	.	.	.	.	.	.
4F\	.	.	4f\	.	4.B-/ 4.f 4.dd	.	4.d/ 4.b- 4.bb-	.	.	.	.	.	.	.	.	4.d/	4.b-\	.	.	.	4.dd\	4.bb-\	.
4D\	.	.	4d\	.	.	.	.	.	.	.	.	.	.	.	.	.	.	.	.	.	.	.	.
.	.	.	.	.	8B-/ 8f 8dd	.	8d/ 8b- 8bb-	.	.	.	.	.	.	.	.	8d/	8b-\	.	.	.	8dd\	8bb-\	.
=128	=128	=128	=128	=128	=128	=128	=128	=128	=128	=128	=128	=128	=128	=128	=128	=128	=128	=128	=128	=128	=128	=128	=128
2BB-/	.	1r	2B-/	.	2B-/ 2f 2dd	.	2d/ 2b- 2bb-	.	1r	1r	1r	1r	1r	1r	1r	2d/	2b-\	.	1ryy	1r	2dd\	2bb-\	1r
!LO:TX:a:t=V. Rondo allegro.	!	!	!LO:TX:a:t=V: Rondo allegro.	!	!LO:TX:a:t=V. allegro Rondo.	!	!LO:TX:a:t=V. A Rondo	!	!	!	!	!	!	!	!	!	!	!	!	!	!	!	!
2r	.	.	2r	.	2r	.	2r	.	.	.	.	.	.	.	.	2r	2r	.	.	.	2r	2r	.
==	==	==	==	==	==	==	==	==	==	==	==	==	==	==	==	==	==	==	==	==	==	==	==
*-	*-	*-	*-	*-	*-	*-	*-	*-	*-	*-	*-	*-	*-	*-	*-	*-	*-	*-	*-	*-	*-	*-	*-
!!!RDF**kern: | = vertical stroke
!!!system-decoration: [(s1,s2,s3,s4,s5)][(s6,s7,s8)]s9,s10[(s11,s12,s13,s14)][(s15,s16,s17,s18,s19)]
!!!ENC: Kamil Watkowski
!!!END: 2020-08-20
!!!ENC: Julita Ruszuk
!!!END: 2022-02-26
!!!YEC: Copyright 2022 Narodowy Instytut Fryderyka Chopina (https://polishscores.org)
!!!YEM: License CC-BY-4.0 (https://creativecommons.org/licenses/by/4.0)
